; generated by PrusaSlicer 2.4.1+linux-x64-GTK3 on 2022-04-19 at 00:49:28 UTC

; 

; external perimeters extrusion width = 0.45mm
; perimeters extrusion width = 0.45mm
; infill extrusion width = 0.45mm
; solid infill extrusion width = 0.45mm
; top infill extrusion width = 0.40mm
; first layer extrusion width = 0.70mm

M107
M104 S200 ; set temperature
;TYPE:Custom
G28 ; home all axes
G1 Z5 F5000 ; lift nozzle
M109 S200 ; set temperature and wait for it to be reached
G21 ; set units to millimeters
G90 ; use absolute coordinates
M82 ; use absolute distances for extrusion
G92 E0
; Filament gcode
M107
;LAYER_CHANGE
;Z:0.35
;HEIGHT:0.35
G1 Z.35 F7800
G1 E-2 F2400
G92 E0
G1 X59.799 Y48.077 F7800
G1 E2 F2400
;TYPE:Skirt/Brim
;WIDTH:0.7
G1 F1800
G1 X60.728 Y47.041 E2.12648
G1 X63.816 Y44.255 E2.50469
G1 X64.942 Y43.436 E2.63131
G1 X68.543 Y41.356 E3.00942
G1 X69.815 Y40.791 E3.13602
G1 X73.772 Y39.51 E3.51422
G1 X75.133 Y39.223 E3.6407
G1 X79.274 Y38.796 E4.01916
G1 X120.726 Y38.796 E7.78844
G1 X124.867 Y39.223 E8.1669
G1 X126.228 Y39.51 E8.29338
G1 X130.185 Y40.791 E8.67158
G1 X131.457 Y41.356 E8.79818
G1 X135.058 Y43.436 E9.17629
G1 X136.184 Y44.255 E9.30291
G1 X139.272 Y47.041 E9.68112
G1 X140.201 Y48.077 E9.8076
G1 X143.01 Y52.019 E10.24779
G1 X163.058 Y86.742 E13.89361
G1 X165.068 Y91.147 E14.33382
G1 X165.5 Y92.469 E14.4603
G1 X166.369 Y96.536 E14.8385
G1 X166.515 Y97.921 E14.96511
G1 X166.515 Y102.079 E15.34321
G1 X166.369 Y103.464 E15.46982
G1 X165.5 Y107.531 E15.84801
G1 X165.068 Y108.853 E15.9745
G1 X163.058 Y113.258 E16.41471
G1 X142.641 Y148.551 E20.12226
G1 X140.201 Y151.923 E20.5007
G1 X139.272 Y152.959 E20.62719
G1 X136.184 Y155.745 E21.0054
G1 X135.058 Y156.564 E21.13201
G1 X131.457 Y158.644 E21.51013
G1 X130.185 Y159.209 E21.63672
G1 X126.228 Y160.49 E22.01493
G1 X124.867 Y160.777 E22.14141
G1 X120.047 Y161.238 E22.58162
G1 X79.953 Y161.238 E26.22742
G1 X75.133 Y160.777 E26.66763
G1 X73.772 Y160.49 E26.79411
G1 X69.815 Y159.209 E27.1723
G1 X68.543 Y158.644 E27.29891
G1 X64.942 Y156.564 E27.67702
G1 X63.816 Y155.745 E27.80363
G1 X60.728 Y152.959 E28.18184
G1 X59.799 Y151.923 E28.30833
G1 X57.359 Y148.551 E28.68677
G1 X36.942 Y113.258 E32.39433
G1 X34.932 Y108.853 E32.83454
G1 X34.5 Y107.531 E32.96102
G1 X33.631 Y103.464 E33.33922
G1 X33.485 Y102.079 E33.46582
G1 X33.485 Y97.921 E33.84393
G1 X33.631 Y96.536 E33.97054
G1 X34.5 Y92.469 E34.34873
G1 X34.932 Y91.147 E34.47522
G1 X36.942 Y86.742 E34.91543
G1 X56.99 Y52.019 E38.56124
G1 X59.764 Y48.125 E38.99598
G1 E36.99598 F2400
G92 E0
G1 X91.65 Y94.4 F7800
G1 E2 F2400
;TYPE:Perimeter
G1 F1800
G1 X109.6 Y94.4 E3.63217
G1 X109.6 Y105.6 E4.65054
G1 X90.4 Y105.6 E6.39635
G1 X90.4 Y94.4 E7.41472
G1 X91.59 Y94.4 E7.5229
G1 X91.025 Y95.025 F7800
G1 F1800
G1 X108.975 Y95.025 E9.15507
G1 X108.975 Y104.975 E10.0598
G1 X91.025 Y104.975 E11.69196
G1 X91.025 Y95.085 E12.59124
G1 X91.65 Y95.65 F7800
;TYPE:External perimeter
G1 F1800
G1 X108.35 Y95.65 E14.10976
G1 X108.35 Y104.35 E14.90085
G1 X91.65 Y104.35 E16.41937
G1 X91.65 Y95.71 E17.205
G1 X91.508 Y95.276 F7800
G1 E15.205 F2400
G92 E0
G1 X86.126 Y97.462 F7800
G1 E2 F2400
;TYPE:Perimeter
G1 F1800
G1 X86.631 Y100 E2.23527
G1 X86.126 Y102.538 E2.47053
G1 X84.689 Y104.689 E2.7058
G1 X82.538 Y106.126 E2.94106
G1 X80 Y106.631 E3.17633
G1 X77.462 Y106.126 E3.41159
G1 X75.311 Y104.689 E3.64685
G1 X73.874 Y102.538 E3.88212
G1 X73.369 Y100 E4.11739
G1 X73.874 Y97.462 E4.35265
G1 X75.311 Y95.311 E4.58792
G1 X77.462 Y93.874 E4.82318
G1 X80 Y93.369 E5.05845
G1 X82.538 Y93.874 E5.29371
G1 X84.689 Y95.311 E5.52897
G1 X86.093 Y97.412 E5.75878
G1 X85.538 Y97.706 F7800
G1 F1800
G1 X85.994 Y100 E5.97145
G1 X85.538 Y102.294 E6.18411
G1 X84.238 Y104.238 E6.39677
G1 X82.294 Y105.538 E6.60943
G1 X80 Y105.994 E6.82209
G1 X77.706 Y105.538 E7.03475
G1 X75.762 Y104.238 E7.2474
G1 X74.462 Y102.294 E7.46007
G1 X74.006 Y100 E7.67273
G1 X74.462 Y97.706 E7.88539
G1 X75.762 Y95.762 E8.09805
G1 X77.706 Y94.462 E8.31071
G1 X80 Y94.006 E8.52337
G1 X82.294 Y94.462 E8.73603
G1 X84.238 Y95.762 E8.94869
G1 X85.504 Y97.656 E9.15589
G1 X84.949 Y97.95 F7800
;TYPE:External perimeter
G1 F1800
G1 X85.357 Y100 E9.34595
G1 X84.949 Y102.05 E9.536
G1 X83.788 Y103.788 E9.72606
G1 X82.05 Y104.949 E9.91612
G1 X80 Y105.357 E10.10617
G1 X77.95 Y104.949 E10.29622
G1 X76.212 Y103.788 E10.48628
G1 X75.051 Y102.05 E10.67634
G1 X74.643 Y100 E10.86639
G1 X75.051 Y97.95 E11.05645
G1 X76.212 Y96.212 E11.2465
G1 X77.95 Y95.051 E11.43656
G1 X80 Y94.643 E11.62661
G1 X82.05 Y95.051 E11.81667
G1 X83.788 Y96.212 E12.00672
G1 X84.916 Y97.9 E12.19132
G1 X85.346 Y98.002 F7800
G1 E10.19132 F2400
G92 E0
G1 X113.369 Y100 F7800
G1 E2 F2400
;TYPE:Perimeter
G1 F1800
G1 X113.874 Y97.462 E2.23527
G1 X115.311 Y95.311 E2.47053
G1 X117.462 Y93.874 E2.7058
G1 X120 Y93.369 E2.94106
G1 X122.538 Y93.874 E3.17632
G1 X124.689 Y95.311 E3.41159
G1 X126.126 Y97.462 E3.64685
G1 X126.631 Y100 E3.88212
G1 X126.126 Y102.538 E4.11739
G1 X124.689 Y104.689 E4.35265
G1 X122.538 Y106.126 E4.58792
G1 X120 Y106.631 E4.82318
G1 X117.462 Y106.126 E5.05844
G1 X115.311 Y104.689 E5.29371
G1 X113.874 Y102.538 E5.52897
G1 X113.381 Y100.059 E5.75878
G1 X114.006 Y100 F7800
G1 F1800
G1 X114.462 Y97.706 E5.97145
G1 X115.762 Y95.762 E6.18411
G1 X117.706 Y94.462 E6.39677
G1 X120 Y94.006 E6.60943
G1 X122.294 Y94.462 E6.82208
G1 X124.238 Y95.762 E7.03474
G1 X125.538 Y97.706 E7.2474
G1 X125.994 Y100 E7.46007
G1 X125.538 Y102.294 E7.67273
G1 X124.238 Y104.238 E7.88539
G1 X122.294 Y105.538 E8.09805
G1 X120 Y105.994 E8.31071
G1 X117.706 Y105.538 E8.52337
G1 X115.762 Y104.238 E8.73602
G1 X114.462 Y102.294 E8.94869
G1 X114.018 Y100.059 E9.15589
G1 X114.643 Y100 F7800
;TYPE:External perimeter
G1 F1800
G1 X115.051 Y97.95 E9.34595
G1 X116.212 Y96.212 E9.536
G1 X117.95 Y95.051 E9.72606
G1 X120 Y94.643 E9.91611
G1 X122.05 Y95.051 E10.10617
G1 X123.788 Y96.212 E10.29622
G1 X124.949 Y97.95 E10.48628
G1 X125.357 Y100 E10.67633
G1 X124.949 Y102.05 E10.86639
G1 X123.788 Y103.788 E11.05645
G1 X122.05 Y104.949 E11.2465
G1 X120 Y105.357 E11.43656
G1 X117.95 Y104.949 E11.62661
G1 X116.212 Y103.788 E11.81667
G1 X115.051 Y102.05 E12.00672
G1 X114.655 Y100.059 E12.19132
G1 X114.297 Y99.8 F7800
G1 E10.19132 F2400
G92 E0
G1 X129.964 Y115.602 F7800
G1 E2 F2400
;TYPE:Perimeter
G1 F1800
G1 X128.494 Y118.149 E2.26744
G1 X130.654 Y119.75 E2.51196
G1 X133.574 Y122.387 E2.86969
G1 X135.833 Y125.5 E3.21944
G1 X137.399 Y129.013 E3.56919
G1 X138.204 Y132.772 E3.91873
G1 X138.213 Y136.612 E4.2679
G1 X137.426 Y140.365 E4.6166
G1 X135.878 Y143.867 E4.9648
G1 X133.636 Y146.966 E5.31255
G1 X130.8 Y149.526 E5.66003
G1 X127.491 Y151.436 E6.00739
G1 X123.856 Y152.613 E6.35486
G1 X120.051 Y153.005 E6.70262
G1 X116.244 Y152.595 E7.05082
G1 X112.6 Y151.4 E7.39952
G1 X109.279 Y149.472 E7.74869
G1 X106.426 Y146.895 E8.09824
G1 X104.167 Y143.782 E8.44798
G1 X102.601 Y140.269 E8.79773
G1 X101.777 Y136.422 E9.15545
G1 X101.471 Y133.751 E9.39998
G1 X98.529 Y133.751 E9.66742
G1 X98.223 Y136.422 E9.91195
G1 X97.399 Y140.269 E10.26967
G1 X95.833 Y143.782 E10.61942
G1 X93.574 Y146.895 E10.96916
G1 X90.721 Y149.472 E11.31871
G1 X87.4 Y151.4 E11.66788
G1 X83.756 Y152.595 E12.01658
G1 X79.949 Y153.005 E12.36478
G1 X76.144 Y152.613 E12.71254
G1 X72.509 Y151.436 E13.06001
G1 X69.2 Y149.526 E13.40737
G1 X66.364 Y146.966 E13.75485
G1 X64.122 Y143.867 E14.1026
G1 X62.574 Y140.365 E14.4508
G1 X61.787 Y136.612 E14.7995
G1 X61.796 Y132.772 E15.14867
G1 X62.601 Y129.013 E15.49821
G1 X64.167 Y125.5 E15.84797
G1 X66.426 Y122.387 E16.19771
G1 X69.346 Y119.75 E16.55544
G1 X71.506 Y118.149 E16.79996
G1 X70.036 Y115.602 E17.0674
G1 X67.569 Y116.672 E17.31193
G1 X63.825 Y117.882 E17.66965
G1 X60 Y118.282 E18.01939
G1 X56.175 Y117.882 E18.36914
G1 X52.517 Y116.7 E18.71868
G1 X49.186 Y114.788 E19.06786
G1 X46.33 Y112.23 E19.41656
G1 X44.071 Y109.138 E19.76476
G1 X42.508 Y105.647 E20.11252
G1 X41.709 Y101.91 E20.45999
G1 X41.709 Y98.09 E20.80735
G1 X42.508 Y94.353 E21.15482
G1 X44.071 Y90.862 E21.50258
G1 X46.33 Y87.77 E21.85078
G1 X49.186 Y85.212 E22.19947
G1 X52.517 Y83.3 E22.54865
G1 X56.175 Y82.118 E22.89819
G1 X60 Y81.718 E23.24794
G1 X63.825 Y82.118 E23.59769
G1 X67.569 Y83.328 E23.95541
G1 X70.036 Y84.398 E24.19993
G1 X71.506 Y81.851 E24.46738
G1 X69.346 Y80.25 E24.7119
G1 X66.426 Y77.613 E25.06962
G1 X64.167 Y74.5 E25.41937
G1 X62.601 Y70.987 E25.76912
G1 X61.796 Y67.228 E26.11866
G1 X61.787 Y63.388 E26.46783
G1 X62.574 Y59.635 E26.81653
G1 X64.122 Y56.133 E27.16473
G1 X66.364 Y53.034 E27.51249
G1 X69.201 Y50.474 E27.85996
G1 X72.509 Y48.564 E28.20732
G1 X76.144 Y47.387 E28.55479
G1 X79.949 Y46.995 E28.90256
G1 X83.756 Y47.405 E29.25076
G1 X87.4 Y48.6 E29.59945
G1 X90.721 Y50.528 E29.94862
G1 X93.574 Y53.105 E30.29817
G1 X95.833 Y56.218 E30.64792
G1 X97.399 Y59.731 E30.99766
G1 X98.223 Y63.578 E31.35538
G1 X98.529 Y66.249 E31.59991
G1 X101.471 Y66.249 E31.86736
G1 X101.777 Y63.578 E32.11188
G1 X102.601 Y59.731 E32.46961
G1 X104.167 Y56.218 E32.81935
G1 X106.426 Y53.105 E33.1691
G1 X109.279 Y50.528 E33.51865
G1 X112.6 Y48.6 E33.86782
G1 X116.244 Y47.405 E34.21651
G1 X120.051 Y46.995 E34.56471
G1 X123.856 Y47.387 E34.91247
G1 X127.491 Y48.564 E35.25994
G1 X130.8 Y50.474 E35.60731
G1 X133.636 Y53.034 E35.95478
G1 X135.878 Y56.133 E36.30254
G1 X137.426 Y59.635 E36.65074
G1 X138.213 Y63.388 E36.99943
G1 X138.204 Y67.228 E37.3486
G1 X137.399 Y70.987 E37.69815
G1 X135.833 Y74.5 E38.0479
G1 X133.574 Y77.613 E38.39764
G1 X130.654 Y80.25 E38.75537
G1 X128.494 Y81.851 E38.99989
G1 X129.964 Y84.398 E39.26734
G1 X132.431 Y83.328 E39.51186
G1 X136.175 Y82.118 E39.86958
G1 X140 Y81.718 E40.21933
G1 X143.825 Y82.118 E40.56907
G1 X147.483 Y83.3 E40.91862
G1 X150.814 Y85.212 E41.26779
G1 X153.67 Y87.77 E41.61649
G1 X155.929 Y90.862 E41.96469
G1 X157.492 Y94.353 E42.31245
G1 X158.291 Y98.09 E42.65992
G1 X158.291 Y101.91 E43.00728
G1 X157.492 Y105.647 E43.35475
G1 X155.929 Y109.138 E43.70251
G1 X153.67 Y112.23 E44.05071
G1 X150.814 Y114.788 E44.39941
G1 X147.483 Y116.7 E44.74858
G1 X143.826 Y117.882 E45.09813
G1 X140 Y118.282 E45.44787
G1 X136.175 Y117.882 E45.79762
G1 X132.431 Y116.672 E46.15534
G1 X130.019 Y115.626 E46.39441
G1 X130.227 Y116.397 F7800
G1 F1800
G1 X129.313 Y117.979 E46.56049
G1 X131.051 Y119.266 E46.75709
G1 X134.041 Y121.967 E47.12351
G1 X136.377 Y125.186 E47.48514
G1 X137.996 Y128.818 E47.84677
G1 X138.829 Y132.705 E48.20821
G1 X138.838 Y136.676 E48.56929
G1 X138.025 Y140.558 E48.92992
G1 X136.423 Y144.18 E49.29009
G1 X134.104 Y147.386 E49.64983
G1 X131.169 Y150.034 E50.00931
G1 X127.746 Y152.01 E50.36868
G1 X123.985 Y153.228 E50.72815
G1 X120.05 Y153.633 E51.0879
G1 X116.112 Y153.209 E51.44807
G1 X112.343 Y151.973 E51.8087
G1 X108.909 Y149.979 E52.16978
G1 X105.959 Y147.315 E52.53122
G1 X103.623 Y144.096 E52.89285
G1 X102.004 Y140.464 E53.25448
G1 X101.159 Y136.524 E53.6209
G1 X100.913 Y134.375 E53.8175
G1 X99.087 Y134.375 E53.98358
G1 X98.841 Y136.524 E54.18018
G1 X97.996 Y140.464 E54.54661
G1 X96.377 Y144.096 E54.90823
G1 X94.041 Y147.315 E55.26986
G1 X91.091 Y149.979 E55.6313
G1 X87.657 Y151.973 E55.99239
G1 X83.888 Y153.209 E56.35302
G1 X79.95 Y153.633 E56.71318
G1 X76.015 Y153.228 E57.07293
G1 X72.254 Y152.01 E57.4324
G1 X68.831 Y150.034 E57.79178
G1 X65.896 Y147.386 E58.15125
G1 X63.577 Y144.18 E58.511
G1 X61.975 Y140.558 E58.87116
G1 X61.162 Y136.676 E59.23179
G1 X61.171 Y132.705 E59.59288
G1 X62.004 Y128.818 E59.95431
G1 X63.623 Y125.186 E60.31594
G1 X65.959 Y121.967 E60.67757
G1 X68.949 Y119.266 E61.044
G1 X70.687 Y117.979 E61.24059
G1 X69.773 Y116.397 E61.40668
G1 X67.79 Y117.258 E61.60328
G1 X63.955 Y118.497 E61.9697
G1 X60 Y118.91 E62.33132
G1 X56.045 Y118.497 E62.69295
G1 X52.262 Y117.275 E63.05439
G1 X48.818 Y115.297 E63.41547
G1 X45.864 Y112.651 E63.77611
G1 X43.527 Y109.453 E64.13627
G1 X41.911 Y105.842 E64.49602
G1 X41.084 Y101.976 E64.85549
G1 X41.084 Y98.024 E65.21486
G1 X41.911 Y94.158 E65.57433
G1 X43.527 Y90.547 E65.93408
G1 X45.864 Y87.349 E66.29425
G1 X48.818 Y84.703 E66.65488
G1 X52.262 Y82.725 E67.01597
G1 X56.045 Y81.503 E67.37741
G1 X60 Y81.09 E67.73903
G1 X63.955 Y81.503 E68.10066
G1 X67.79 Y82.742 E68.46708
G1 X69.773 Y83.603 E68.66368
G1 X70.687 Y82.021 E68.82976
G1 X68.949 Y80.734 E69.02636
G1 X65.959 Y78.033 E69.39278
G1 X63.623 Y74.814 E69.75441
G1 X62.004 Y71.182 E70.11604
G1 X61.171 Y67.295 E70.47748
G1 X61.162 Y63.324 E70.83856
G1 X61.975 Y59.442 E71.19919
G1 X63.577 Y55.82 E71.55936
G1 X65.896 Y52.614 E71.9191
G1 X68.831 Y49.966 E72.27858
G1 X72.254 Y47.99 E72.63795
G1 X76.015 Y46.772 E72.99742
G1 X79.95 Y46.367 E73.35717
G1 X83.888 Y46.791 E73.71734
G1 X87.657 Y48.027 E74.07797
G1 X91.091 Y50.021 E74.43905
G1 X94.041 Y52.685 E74.80049
G1 X96.377 Y55.904 E75.16212
G1 X97.996 Y59.536 E75.52375
G1 X98.841 Y63.476 E75.89017
G1 X99.087 Y65.625 E76.08677
G1 X100.913 Y65.625 E76.25285
G1 X101.159 Y63.476 E76.44946
G1 X102.004 Y59.536 E76.81588
G1 X103.623 Y55.904 E77.1775
G1 X105.959 Y52.685 E77.53913
G1 X108.909 Y50.021 E77.90057
G1 X112.343 Y48.027 E78.26166
G1 X116.112 Y46.791 E78.62229
G1 X120.05 Y46.367 E78.98245
G1 X123.985 Y46.772 E79.3422
G1 X127.746 Y47.99 E79.70167
G1 X131.169 Y49.966 E80.06105
G1 X134.104 Y52.614 E80.42052
G1 X136.423 Y55.82 E80.78027
G1 X138.025 Y59.442 E81.14043
G1 X138.838 Y63.324 E81.50106
G1 X138.829 Y67.295 E81.86215
G1 X137.996 Y71.182 E82.22358
G1 X136.377 Y74.814 E82.58522
G1 X134.041 Y78.033 E82.94684
G1 X131.051 Y80.734 E83.31327
G1 X129.313 Y82.021 E83.50986
G1 X130.227 Y83.603 E83.67595
G1 X132.21 Y82.742 E83.87255
G1 X136.045 Y81.503 E84.23897
G1 X140 Y81.09 E84.60059
G1 X143.955 Y81.503 E84.96222
G1 X147.738 Y82.725 E85.32366
G1 X151.182 Y84.703 E85.68475
G1 X154.136 Y87.349 E86.04538
G1 X156.473 Y90.547 E86.40554
G1 X158.089 Y94.158 E86.76529
G1 X158.916 Y98.024 E87.12476
G1 X158.916 Y101.976 E87.48414
G1 X158.089 Y105.842 E87.84361
G1 X156.473 Y109.453 E88.20336
G1 X154.136 Y112.651 E88.56352
G1 X151.182 Y115.297 E88.92415
G1 X147.738 Y117.275 E89.28524
G1 X143.955 Y118.497 E89.64668
G1 X140 Y118.91 E90.0083
G1 X136.045 Y118.497 E90.36993
G1 X132.21 Y117.258 E90.73635
G1 X130.282 Y116.421 E90.9275
G1 X130.489 Y117.192 F7800
;TYPE:External perimeter
G1 F1800
G1 X130.133 Y117.808 E90.99222
G1 X131.447 Y118.782 E91.14089
G1 X134.508 Y121.547 E91.51601
G1 X136.921 Y124.872 E91.88952
G1 X138.594 Y128.623 E92.26303
G1 X139.454 Y132.638 E92.63636
G1 X139.464 Y136.74 E93.00936
G1 X138.623 Y140.75 E93.38193
G1 X136.968 Y144.493 E93.75406
G1 X134.572 Y147.805 E94.12579
G1 X131.539 Y150.542 E94.49726
G1 X128.002 Y152.585 E94.86865
G1 X124.115 Y153.843 E95.24012
G1 X120.048 Y154.262 E95.61186
G1 X115.979 Y153.823 E95.98399
G1 X112.086 Y152.546 E96.35656
G1 X108.538 Y150.487 E96.72955
G1 X105.492 Y147.735 E97.10288
G1 X103.079 Y144.41 E97.47639
G1 X101.406 Y140.659 E97.8499
G1 X100.542 Y136.625 E98.22503
G1 X100.356 Y135 E98.3737
G1 X99.644 Y135 E98.43842
G1 X99.458 Y136.625 E98.5871
G1 X98.594 Y140.659 E98.96222
G1 X96.921 Y144.41 E99.33573
G1 X94.508 Y147.735 E99.70924
G1 X91.462 Y150.487 E100.08257
G1 X87.914 Y152.546 E100.45557
G1 X84.021 Y153.823 E100.82814
G1 X79.952 Y154.262 E101.20026
G1 X75.885 Y153.843 E101.572
G1 X71.998 Y152.585 E101.94347
G1 X68.461 Y150.542 E102.31486
G1 X65.428 Y147.805 E102.68634
G1 X63.032 Y144.493 E103.05807
G1 X61.392 Y140.783 E103.42691
G1 X60.536 Y136.74 E103.80269
G1 X60.546 Y132.638 E104.17569
G1 X61.406 Y128.623 E104.54902
G1 X63.079 Y124.872 E104.92253
G1 X65.492 Y121.547 E105.29604
G1 X68.553 Y118.782 E105.67116
G1 X69.867 Y117.808 E105.81983
G1 X69.511 Y117.192 E105.88456
G1 X68.011 Y117.843 E106.03323
G1 X64.085 Y119.112 E106.40835
G1 X60 Y119.538 E106.78186
G1 X55.915 Y119.112 E107.15537
G1 X52.008 Y117.849 E107.5287
G1 X48.45 Y115.806 E107.9017
G1 X45.398 Y113.073 E108.27427
G1 X42.984 Y109.769 E108.6464
G1 X41.313 Y106.037 E109.01813
G1 X40.46 Y102.042 E109.3896
G1 X40.46 Y97.958 E109.76099
G1 X41.313 Y93.963 E110.13246
G1 X42.984 Y90.231 E110.5042
G1 X45.398 Y86.927 E110.87632
G1 X48.45 Y84.194 E111.24889
G1 X52.008 Y82.151 E111.62189
G1 X55.915 Y80.888 E111.99522
