; generated by PrusaSlicer 2.4.1+linux-x64-GTK3 on 2022-04-24 at 05:42:08 UTC

; 

; external perimeters extrusion width = 0.45mm
; perimeters extrusion width = 0.45mm
; infill extrusion width = 0.45mm
; solid infill extrusion width = 0.45mm
; top infill extrusion width = 0.40mm
; first layer extrusion width = 0.70mm

M107
M104 S200 ; set temperature
;TYPE:Custom
G28 ; home all axes
G1 Z5 F5000 ; lift nozzle
M109 S200 ; set temperature and wait for it to be reached
G21 ; set units to millimeters
G90 ; use absolute coordinates
M82 ; use absolute distances for extrusion
G92 E0
; Filament gcode
M107
;LAYER_CHANGE
;Z:0.35
;HEIGHT:0.35
G1 Z.35 F7800
G1 E-2 F2400
G92 E0
G1 X84.665 Y93.253 F7800
G1 E2 F2400
;TYPE:Skirt/Brim
;WIDTH:0.7
G1 F1800
G1 X86.418 Y91.774 E2.20854
G1 X88.57 Y90.981 E2.41708
G1 X89.75 Y90.875 E2.52479
G1 X109.75 Y90.875 E4.34339
G1 X112.009 Y91.272 E4.55193
G1 X113.997 Y92.415 E4.76047
G1 X115.476 Y94.168 E4.96901
G1 X116.269 Y96.32 E5.17756
G1 X116.375 Y97.5 E5.28526
G1 X116.375 Y102.5 E5.73991
G1 X115.978 Y104.759 E5.94845
G1 X114.835 Y106.747 E6.157
G1 X113.082 Y108.226 E6.36554
G1 X110.93 Y109.019 E6.57408
G1 X109.75 Y109.125 E6.68179
G1 X89.75 Y109.125 E8.50038
G1 X87.491 Y108.728 E8.70892
G1 X85.503 Y107.585 E8.91747
G1 X84.024 Y105.832 E9.12601
G1 X83.231 Y103.68 E9.33455
G1 X83.125 Y102.5 E9.44226
G1 X83.125 Y97.5 E9.89691
G1 X83.522 Y95.241 E10.10545
G1 X84.636 Y93.305 E10.30854
G1 E8.30854 F2400
G92 E0
G1 X91.35 Y99.1 F7800
G1 E2 F2400
;TYPE:Perimeter
G1 F1800
G1 X108.15 Y99.1 E3.52766
G1 X108.15 Y100.9 E3.69137
G1 X91.35 Y100.9 E5.21903
G1 X91.35 Y99.16 E5.37729
G1 X90.725 Y98.475 F7800
G1 F1800
G1 X108.775 Y98.475 E7.01859
G1 X108.775 Y101.525 E7.29594
G1 X90.725 Y101.525 E8.93724
G1 X90.725 Y98.535 E9.20914
G1 X90.1 Y97.85 F7800
;TYPE:External perimeter
G1 F1800
G1 X109.4 Y97.85 E10.96408
G1 X109.4 Y102.15 E11.35508
G1 X90.1 Y102.15 E13.11002
G1 X90.1 Y97.91 E13.49556
G1 X90.499 Y97.879 F7800
G1 E11.49556 F2400
G92 E0
G1 X107.963 Y100.573 F7800
G1 E2 F2400
;TYPE:Solid infill
;WIDTH:0.71066
G1 F1800
G1 X106.958 Y99.568 E2.13139
G1 X106.059 Y99.568 E2.21451
G1 X106.923 Y100.432 E2.3274
G1 X106.024 Y100.432 E2.41052
G1 X105.161 Y99.568 E2.52341
G1 X104.262 Y99.568 E2.60653
G1 X105.125 Y100.432 E2.71942
G1 X104.226 Y100.432 E2.80254
G1 X103.363 Y99.568 E2.91543
G1 X102.464 Y99.568 E2.99855
G1 X103.327 Y100.432 E3.11144
G1 X102.429 Y100.432 E3.19456
G1 X101.565 Y99.568 E3.30745
G1 X100.667 Y99.568 E3.39057
G1 X101.53 Y100.432 E3.50346
G1 X100.631 Y100.432 E3.58658
G1 X99.768 Y99.568 E3.69947
G1 X98.869 Y99.568 E3.78259
G1 X99.732 Y100.432 E3.89548
G1 X98.833 Y100.432 E3.9786
G1 X97.97 Y99.568 E4.09149
G1 X97.071 Y99.568 E4.17461
G1 X97.935 Y100.432 E4.2875
G1 X97.036 Y100.432 E4.37062
G1 X96.173 Y99.568 E4.48351
G1 X95.274 Y99.568 E4.56663
G1 X96.137 Y100.432 E4.67952
G1 X95.238 Y100.432 E4.76264
G1 X94.375 Y99.568 E4.87552
G1 X93.476 Y99.568 E4.95865
G1 X94.339 Y100.432 E5.07153
G1 X93.44 Y100.432 E5.15466
G1 X92.577 Y99.568 E5.26754
G1 X91.818 Y99.568 E5.33773
G1 X91.818 Y99.708 E5.35067
G1 X92.823 Y100.713 E5.48204
;LAYER_CHANGE
;Z:0.65
;HEIGHT:0.3
G1 Z.65 F7800
G1 E3.48204 F2400
G92 E0
G1 X90.746 Y98.496 F7800
G1 E2 F2400
;TYPE:Perimeter
;WIDTH:0.45
G1 F3600
G1 X108.754 Y98.496 E2.8661
G1 X108.754 Y101.504 E3.01075
G1 X90.746 Y101.504 E3.87685
G1 X90.746 Y98.556 E4.01862
G1 X90.361 Y98.111 F7800
G1 F3600
G1 X109.139 Y98.111 E4.92181
G1 X109.139 Y101.889 E5.10356
G1 X90.361 Y101.889 E6.00675
G1 X90.361 Y98.171 E6.18561
G1 X89.975 Y97.85 F7800
;TYPE:External perimeter
G1 F1800
G1 X89.975 Y97.725 E6.19163
G1 X109.525 Y97.725 E7.13191
G1 X109.525 Y102.275 E7.35075
G1 X89.975 Y102.275 E8.29104
G1 X89.975 Y97.91 E8.50098
G1 X90.045 Y97.747 F7800
G1 E6.50098 F2400
G92 E0
G1 X108.641 Y100.704 F7800
G1 E2 F2400
;TYPE:Top solid infill
;WIDTH:0.403619
G1 F900
G1 X108.105 Y101.24 E2.03202
G1 X107.626 Y101.24 E2.05232
G1 X108.49 Y100.376 E2.10401
G1 X108.49 Y99.896 E2.12431
G1 X107.146 Y101.24 E2.20471
G1 X106.666 Y101.24 E2.22501
G1 X108.49 Y99.416 E2.33411
G1 X108.49 Y98.936 E2.35441
G1 X106.186 Y101.24 E2.49222
G1 X105.707 Y101.24 E2.51252
G1 X108.186 Y98.76 E2.66087
G1 X107.706 Y98.76 E2.68117
G1 X105.227 Y101.24 E2.82951
G1 X104.747 Y101.24 E2.84981
G1 X107.226 Y98.76 E2.99816
G1 X106.747 Y98.76 E3.01845
G1 X104.267 Y101.24 E3.1668
G1 X103.788 Y101.24 E3.1871
G1 X106.267 Y98.76 E3.33544
G1 X105.787 Y98.76 E3.35574
G1 X103.308 Y101.24 E3.50409
G1 X102.828 Y101.24 E3.52439
G1 X105.307 Y98.76 E3.67273
G1 X104.828 Y98.76 E3.69303
G1 X102.348 Y101.24 E3.84138
G1 X101.869 Y101.24 E3.86168
G1 X104.348 Y98.76 E4.01002
G1 X103.868 Y98.76 E4.03032
G1 X101.389 Y101.24 E4.17866
G1 X100.909 Y101.24 E4.19896
G1 X103.388 Y98.76 E4.34731
G1 X102.909 Y98.76 E4.36761
G1 X100.429 Y101.24 E4.51595
G1 X99.95 Y101.24 E4.53625
G1 X102.429 Y98.76 E4.6846
G1 X101.949 Y98.76 E4.7049
G1 X99.47 Y101.24 E4.85324
G1 X98.99 Y101.24 E4.87354
G1 X101.469 Y98.76 E5.02189
G1 X100.989 Y98.76 E5.04219
G1 X98.51 Y101.24 E5.19053
G1 X98.031 Y101.24 E5.21083
G1 X100.51 Y98.76 E5.35917
G1 X100.03 Y98.76 E5.37947
G1 X97.551 Y101.24 E5.52782
G1 X97.071 Y101.24 E5.54812
G1 X99.55 Y98.76 E5.69646
G1 X99.07 Y98.76 E5.71676
G1 X96.591 Y101.24 E5.86511
G1 X96.112 Y101.24 E5.88541
G1 X98.591 Y98.76 E6.03375
G1 X98.111 Y98.76 E6.05405
G1 X95.632 Y101.24 E6.2024
G1 X95.152 Y101.24 E6.2227
G1 X97.631 Y98.76 E6.37104
G1 X97.151 Y98.76 E6.39134
G1 X94.672 Y101.24 E6.53968
G1 X94.193 Y101.24 E6.55998
G1 X96.672 Y98.76 E6.70833
G1 X96.192 Y98.76 E6.72863
G1 X93.713 Y101.24 E6.87697
G1 X93.233 Y101.24 E6.89727
G1 X95.712 Y98.76 E7.04562
G1 X95.232 Y98.76 E7.06592
G1 X92.753 Y101.24 E7.21426
G1 X92.274 Y101.24 E7.23456
G1 X94.753 Y98.76 E7.38291
G1 X94.273 Y98.76 E7.40321
G1 X91.794 Y101.24 E7.55155
G1 X91.314 Y101.24 E7.57185
G1 X93.793 Y98.76 E7.72019
G1 X93.313 Y98.76 E7.74049
G1 X91.01 Y101.063 E7.8783
G1 X91.01 Y100.584 E7.8986
G1 X92.834 Y98.76 E8.0077
G1 X92.354 Y98.76 E8.02799
G1 X91.01 Y100.104 E8.10839
G1 X91.01 Y99.624 E8.12868
G1 X91.874 Y98.76 E8.18037
G1 X91.394 Y98.76 E8.20067
G1 X90.859 Y99.295 E8.23268
;LAYER_CHANGE
;Z:0.95
;HEIGHT:0.3
G1 Z.95 F7800
G1 E6.23268 F2400
G92 E0
G1 X107.56 Y98.496 F7800
G1 E2 F2400
;TYPE:Perimeter
;WIDTH:0.45
G1 F900
G1 X107.94 Y98.496 E2.01828
G1 X107.94 Y101.504 E2.16293
G1 X107.56 Y101.504 E2.18121
G1 X107.56 Y98.556 E2.32298
G1 X107.174 Y98.111 F7800
G1 F900
G1 X108.326 Y98.111 E2.37835
G1 X108.326 Y101.889 E2.5601
G1 X107.174 Y101.889 E2.61547
G1 X107.174 Y98.171 E2.79433
G1 X106.789 Y97.85 F7800
;TYPE:External perimeter
G1 F900
G1 X106.789 Y97.725 E2.80034
G1 X108.711 Y97.725 E2.89281
G1 X108.711 Y102.275 E3.11165
G1 X106.789 Y102.275 E3.20412
G1 X106.789 Y97.91 E3.41406
G1 X106.887 Y97.773 F7800
G1 E1.41406 F2400
G92 E0
G1 X94.781 Y98.496 F7800
G1 E2 F2400
;TYPE:Perimeter
G1 F900
G1 X97.479 Y98.496 E2.12978
G1 X97.479 Y101.504 E2.27443
G1 X94.781 Y101.504 E2.40421
G1 X94.781 Y98.556 E2.54598
G1 X94.395 Y98.111 F7800
G1 F900
G1 X97.865 Y98.111 E2.71285
G1 X97.865 Y101.889 E2.8946
G1 X94.395 Y101.889 E3.06147
G1 X94.395 Y98.171 E3.24033
G1 X94.01 Y97.85 F7800
;TYPE:External perimeter
G1 F900
G1 X94.01 Y97.725 E3.24635
G1 X98.251 Y97.725 E3.45031
G1 X98.251 Y102.275 E3.66915
G1 X94.01 Y102.275 E3.87312
G1 X94.01 Y97.91 E4.08306
G1 X94.099 Y97.762 F7800
G1 E2.08306 F2400
G92 E0
G1 X97.366 Y99.301 F7800
G1 E2 F2400
;TYPE:Top solid infill
;WIDTH:0.406381
G1 F900
G1 X96.825 Y98.76 E2.03263
G1 X96.341 Y98.76 E2.05327
G1 X97.215 Y99.634 E2.10597
G1 X97.215 Y100.118 E2.1266
G1 X95.858 Y98.76 E2.20847
G1 X95.374 Y98.76 E2.2291
G1 X97.215 Y100.601 E2.34016
G1 X97.215 Y101.085 E2.36079
G1 X95.045 Y98.915 E2.49169
G1 X95.045 Y99.399 E2.51232
G1 X96.886 Y101.24 E2.62337
G1 X96.402 Y101.24 E2.644
G1 X95.045 Y99.882 E2.72587
G1 X95.045 Y100.366 E2.7465
G1 X95.919 Y101.24 E2.79919
G1 X95.435 Y101.24 E2.81982
G1 X94.894 Y100.699 E2.85245
G1 E.85245 F2400
G92 E0
G1 X90 Y102.5 F7800
G1 E2 F2400
;TYPE:External perimeter
;WIDTH:0.564381
G1 F1800
G1 X90 Y97.5 E2.31181
M106 S252.45
;LAYER_CHANGE
;Z:1.25
;HEIGHT:0.3
G1 Z1.25 F7800
G1 E.31181 F2400
G92 E0
G1 X94.01 Y97.725 F7800
G1 E2 F2400
;WIDTH:0.45
G1 F900
G1 X94.178 Y97.725 E2.00811
G1 X94.178 Y102.275 E2.22695
G1 X93.585 Y102.275 E2.2555
;TYPE:Overhang perimeter
;WIDTH:0.4
;HEIGHT:0.4
M106 S255
G1 X93.393 Y102.275 E2.26551
G1 X93.393 Y97.725 E2.50323
G1 X93.585 Y97.725 E2.51324
M106 S252.45
;TYPE:External perimeter
;WIDTH:0.45
;HEIGHT:0.3
G1 X93.95 Y97.725 E2.5308
G1 X93.786 Y97.918 F7800
;TYPE:Gap fill
;WIDTH:0.464049
G1 F932
G1 X93.786 Y102.082 E2.73839
G1 E.73839 F2400
G92 E0
G1 X98.082 Y97.85 F7800
G1 E2 F2400
;TYPE:External perimeter
;WIDTH:0.45
G1 F900
G1 X98.082 Y97.725 E2.00601
G1 X98.676 Y97.725 E2.03456
;TYPE:Overhang perimeter
;WIDTH:0.4
;HEIGHT:0.4
M106 S255
G1 X98.867 Y97.725 E2.04458
G1 X98.867 Y102.275 E2.28229
G1 X98.676 Y102.275 E2.29231
M106 S252.45
;TYPE:External perimeter
;WIDTH:0.45
;HEIGHT:0.3
G1 X98.082 Y102.275 E2.32086
G1 X98.082 Y97.91 E2.5308
G1 X98.187 Y97.783 F7800
G1 X98.475 Y97.918
;TYPE:Gap fill
;WIDTH:0.464039
G1 F932
G1 X98.475 Y102.082 E2.73838
G1 E.73838 F2400
G92 E0
G1 X106.901 Y97.85 F7800
G1 E2 F2400
;TYPE:External perimeter
;WIDTH:0.45
G1 F900
G1 X106.901 Y102.275 E2.21283
G1 X106.364 Y102.275 E2.23868
;TYPE:Overhang perimeter
;WIDTH:0.4
;HEIGHT:0.4
M106 S255
G1 X106.364 Y97.725 E2.47639
M106 S252.45
;TYPE:External perimeter
;WIDTH:0.45
;HEIGHT:0.3
G1 X106.901 Y97.725 E2.50224
G1 X106.901 Y97.79 E2.50536
G1 X106.675 Y98.18 F7800
G1 X106.626 Y97.918
;TYPE:Gap fill
;WIDTH:0.228313
G1 F932
G1 X106.626 Y102.082 E2.59051
G1 E.59051 F2400
G92 E0
G1 X108.599 Y97.85 F7800
G1 E2 F2400
;TYPE:External perimeter
;WIDTH:0.45
G1 F900
G1 X108.599 Y97.725 E2.00601
G1 X109.136 Y97.725 E2.03186
;TYPE:Overhang perimeter
;WIDTH:0.4
;HEIGHT:0.4
M106 S255
G1 X109.136 Y102.275 E2.26957
M106 S252.45
;TYPE:External perimeter
;WIDTH:0.45
;HEIGHT:0.3
G1 X108.599 Y102.275 E2.29542
G1 X108.599 Y97.91 E2.50536
G1 X108.705 Y97.783 F7800
G1 X108.874 Y97.918
;TYPE:Gap fill
;WIDTH:0.228311
G1 F932
G1 X108.874 Y102.082 E2.59051
G1 E.59051 F2400
G92 E0
G1 X90 Y102.5 F7800
G1 E2 F2400
;TYPE:External perimeter
;WIDTH:0.564381
G1 F932
G1 X90 Y97.5 E2.31181
;LAYER_CHANGE
;Z:1.55
;HEIGHT:0.3
G1 Z1.55 F7800
G1 E.31181 F2400
G92 E0
G1 X93.448 Y97.725 F7800
G1 E2 F2400
;WIDTH:0.45
G1 F731
G1 X93.448 Y102.275 E2.21884
G1 X92.968 Y102.275 E2.24192
;TYPE:Overhang perimeter
;WIDTH:0.4
;HEIGHT:0.4
M106 S255
G1 F900
G1 X92.915 Y102.275 E2.24469
G1 X92.915 Y97.725 E2.48241
G1 X92.968 Y97.725 E2.48518
M106 S252.45
;TYPE:External perimeter
;WIDTH:0.45
;HEIGHT:0.3
G1 F731
G1 X93.388 Y97.725 E2.50537
G1 X93.181 Y97.918 F7800
;TYPE:Gap fill
;WIDTH:0.211703
G1 F731
G1 X93.181 Y102.082 E2.58189
G1 E.58189 F2400
G92 E0
G1 X98.812 Y97.85 F7800
G1 E2 F2400
;TYPE:External perimeter
;WIDTH:0.45
G1 F731
G1 X98.812 Y97.725 E2.00601
G1 X99.292 Y97.725 E2.02909
;TYPE:Overhang perimeter
;WIDTH:0.4
;HEIGHT:0.4
M106 S255
G1 F900
G1 X99.345 Y97.725 E2.03187
G1 X99.345 Y102.275 E2.26958
G1 X99.292 Y102.275 E2.27236
M106 S252.45
;TYPE:External perimeter
;WIDTH:0.45
;HEIGHT:0.3
G1 F731
G1 X98.812 Y102.275 E2.29543
G1 X98.812 Y97.91 E2.50537
G1 X98.918 Y97.784 F7800
G1 X99.079 Y97.918
;TYPE:Gap fill
;WIDTH:0.211703
G1 F731
G1 X99.079 Y102.082 E2.58189
G1 E.58189 F2400
G92 E0
G1 X106.054 Y102.082 F7800
G1 E2 F2400
;TYPE:External perimeter
;WIDTH:0.45
G1 F731
G1 X106.054 Y97.725 E2.20957
G1 X106.326 Y97.725 E2.22264
G1 X106.326 Y102.275 E2.44148
G1 X106.054 Y102.275 E2.45455
G1 X106.054 Y102.142 E2.46094
G1 X106.321 Y101.784 F7800
G1 E.46094 F2400
G92 E0
G1 X109.174 Y102.142 F7800
G1 E2 F2400
G1 F731
G1 X109.174 Y97.725 E2.21245
G1 X109.446 Y97.725 E2.22552
G1 X109.446 Y102.275 E2.44436
G1 X109.174 Y102.275 E2.45744
G1 X109.174 Y102.202 E2.46094
G1 X109.424 Y101.83 F7800
G1 E.46094 F2400
G92 E0
G1 X90 Y102.5 F7800
G1 E2 F2400
;WIDTH:0.564381
G1 F731
G1 X90 Y97.5 E2.31181
M106 S255
;LAYER_CHANGE
;Z:1.85
;HEIGHT:0.3
G1 Z1.85 F7800
G1 E.31181 F2400
G92 E0
G1 X92.513 Y97.725 F7800
G1 E2 F2400
;WIDTH:0.45
G1 F600
G1 X92.913 Y97.725 E2.0192
G1 X92.913 Y102.275 E2.23804
G1 X92.513 Y102.275 E2.25724
G1 X92.513 Y97.785 E2.47319
G1 X92.865 Y97.914 F7800
G1 E.47319 F2400
G92 E0
G1 X99.348 Y97.785 F7800
G1 E2 F2400
G1 F600
G1 X99.348 Y97.725 E2.00289
G1 X99.747 Y97.725 E2.02208
G1 X99.747 Y102.275 E2.24092
G1 X99.348 Y102.275 E2.26012
G1 X99.348 Y97.845 E2.47319
G1 X99.399 Y97.753 F7800
G1 E.47319 F2400
G92 E0
G1 X109.577 Y102.5 F7800
G1 E2 F2400
;WIDTH:0.679775
G1 F600
G1 X109.577 Y97.5 E2.38378
G1 E.38378 F2400
G92 E0
G1 X105.923 Y102.5 F7800
G1 E2 F2400
;WIDTH:0.679772
G1 F600
G1 X105.923 Y97.5 E2.38378
G1 E.38378 F2400
G92 E0
G1 X90 Y102.5 F7800
G1 E2 F2400
;WIDTH:0.564381
G1 F600
G1 X90 Y97.5 E2.31181
;LAYER_CHANGE
;Z:2.15
;HEIGHT:0.3
G1 Z2.15 F7800
G1 E.31181 F2400
G92 E0
G1 X99.768 Y97.725 F7800
G1 E2 F2400
;WIDTH:0.45
G1 F600
G1 X100.085 Y97.725 E2.01522
G1 X100.085 Y102.275 E2.23406
G1 X99.768 Y102.275 E2.24929
G1 X99.768 Y97.785 E2.46524
G1 X100.046 Y97.877 F7800
G1 E.46524 F2400
G92 E0
G1 X92.492 Y97.785 F7800
G1 E2 F2400
G1 F600
G1 X92.492 Y102.275 E2.21595
G1 X92.175 Y102.275 E2.23118
G1 X92.175 Y97.725 E2.45002
G1 X92.492 Y97.725 E2.46524
G1 X92.483 Y98.185 F7800
G1 E.46524 F2400
G92 E0
G1 X109.76 Y102.5 F7800
G1 E2 F2400
;WIDTH:0.623301
G1 F600
G1 X109.76 Y97.5 E2.34856
G1 E.34856 F2400
G92 E0
G1 X90 Y102.5 F7800
G1 E2 F2400
;WIDTH:0.564381
G1 F600
G1 X90 Y97.5 E2.31181
G1 E.31181 F2400
G92 E0
G1 X105.74 Y102.5 F7800
G1 E2 F2400
;WIDTH:0.623301
G1 F600
G1 X105.74 Y97.5 E2.34856
;LAYER_CHANGE
;Z:2.45
;HEIGHT:0.3
G1 Z2.45 F7800
G1 E.34856 F2400
G92 E0
G1 X100.377 Y97.725 F7800
G1 E2 F2400
;WIDTH:0.45
G1 F600
G1 X100.377 Y102.275 E2.21884
G1 X100.124 Y102.275 E2.23101
G1 X100.124 Y97.725 E2.44985
G1 X100.317 Y97.725 E2.45914
G1 X100.37 Y98.125 F7800
G1 E.45914 F2400
G92 E0
G1 X92.136 Y97.725 F7800
G1 E2 F2400
G1 F600
G1 X92.136 Y102.275 E2.21884
G1 X91.883 Y102.275 E2.23101
G1 X91.883 Y97.725 E2.44985
G1 X92.076 Y97.725 E2.45914
G1 X92.129 Y98.125 F7800
G1 E.45914 F2400
G92 E0
G1 X109.886 Y102.5 F7800
G1 E2 F2400
;WIDTH:0.590463
G1 F600
G1 X109.886 Y97.5 E2.32808
G1 E.32808 F2400
G92 E0
G1 X105.614 Y102.5 F7800
G1 E2 F2400
G1 F600
G1 X105.614 Y97.5 E2.32808
G1 E.32808 F2400
G92 E0
G1 X90 Y102.5 F7800
G1 E2 F2400
;WIDTH:0.564381
G1 F600
G1 X90 Y97.5 E2.31181
;LAYER_CHANGE
;Z:2.75
;HEIGHT:0.3
G1 Z2.75 F7800
G1 E.31181 F2400
G92 E0
G1 X109.963 Y102.5 F7800
G1 E2 F2400
;WIDTH:0.571977
G1 F600
G1 X109.963 Y97.5 E2.31655
G1 E.31655 F2400
G92 E0
G1 X105.537 Y102.5 F7800
G1 E2 F2400
G1 F600
G1 X105.537 Y97.5 E2.31655
G1 E.31655 F2400
G92 E0
G1 X91.731 Y102.5 F7800
G1 E2 F2400
;WIDTH:0.722154
G1 F600
G1 X91.731 Y97.5 E2.41021
G1 E.41021 F2400
G92 E0
G1 X100.529 Y102.5 F7800
G1 E2 F2400
;WIDTH:0.722175
G1 F600
G1 X100.529 Y97.5 E2.41022
G1 E.41022 F2400
G92 E0
G1 X90 Y102.5 F7800
G1 E2 F2400
;WIDTH:0.564381
G1 F600
G1 X90 Y97.5 E2.31181
;LAYER_CHANGE
;Z:3.05
;HEIGHT:0.3
G1 Z3.05 F7800
G1 E.31181 F2400
G92 E0
G1 X109.997 Y102.5 F7800
G1 E2 F2400
;WIDTH:0.564367
G1 F600
G1 X109.997 Y97.5 E2.31181
G1 E.31181 F2400
G92 E0
G1 X105.503 Y102.5 F7800
G1 E2 F2400
G1 F600
G1 X105.503 Y97.5 E2.31181
G1 E.31181 F2400
G92 E0
G1 X91.49 Y102.5 F7800
G1 E2 F2400
;WIDTH:0.689239
G1 F600
G1 X91.49 Y97.5 E2.38968
G1 E.38968 F2400
G92 E0
G1 X100.771 Y102.5 F7800
G1 E2 F2400
;WIDTH:0.689213
G1 F600
G1 X100.771 Y97.5 E2.38966
G1 E.38966 F2400
G92 E0
G1 X90 Y102.5 F7800
G1 E2 F2400
;WIDTH:0.564381
G1 F600
G1 X90 Y97.5 E2.31181
;LAYER_CHANGE
;Z:3.35
;HEIGHT:0.3
G1 Z3.35 F7800
G1 E.31181 F2400
G92 E0
G1 X105.51 Y102.5 F7800
G1 E2 F2400
;WIDTH:0.566389
G1 F600
G1 X105.51 Y97.5 E2.31307
G1 E.31307 F2400
G92 E0
G1 X109.99 Y102.5 F7800
G1 E2 F2400
G1 F600
G1 X109.99 Y97.5 E2.31307
G1 E.31307 F2400
G92 E0
G1 X100.982 Y102.5 F7800
G1 E2 F2400
;WIDTH:0.662879
G1 F600
G1 X100.982 Y97.5 E2.37324
G1 E.37324 F2400
G92 E0
G1 X91.278 Y102.5 F7800
G1 E2 F2400
;WIDTH:0.662917
G1 F600
G1 X91.278 Y97.5 E2.37326
G1 E.37326 F2400
