; generated by PrusaSlicer 2.4.1+linux-x64-GTK3 on 2022-04-19 at 00:49:28 UTC

; 

; external perimeters extrusion width = 0.45mm
; perimeters extrusion width = 0.45mm
; infill extrusion width = 0.45mm
; solid infill extrusion width = 0.45mm
; top infill extrusion width = 0.40mm
; first layer extrusion width = 0.70mm

M107
M104 S200 ; set temperature
;TYPE:Custom
G28 ; home all axes
G1 Z5 F5000 ; lift nozzle
M109 S200 ; set temperature and wait for it to be reached
G21 ; set units to millimeters
G90 ; use absolute coordinates
M82 ; use absolute distances for extrusion
G92 E0
; Filament gcode
M107
;LAYER_CHANGE
;Z:0.35
;HEIGHT:0.35
G1 Z.35 F7800
G1 E-2 F2400
G92 E0
G1 X84.915 Y66.054 F7800
G1 E2 F2400
;TYPE:Skirt/Brim
;WIDTH:0.7
G1 F1800
G1 X86.668 Y64.575 E2.20854
G1 X88.82 Y63.782 E2.41708
G1 X90 Y63.676 E2.52479
G1 X110 Y63.676 E4.34339
G1 X112.259 Y64.073 E4.55193
G1 X114.247 Y65.216 E4.76047
G1 X115.726 Y66.969 E4.96901
G1 X116.519 Y69.121 E5.17756
G1 X116.625 Y70.301 E5.28526
G1 X116.625 Y129.699 E10.6863
G1 X116.228 Y131.958 E10.89484
G1 X115.085 Y133.946 E11.10338
G1 X113.332 Y135.425 E11.31193
G1 X111.18 Y136.218 E11.52047
G1 X110 Y136.324 E11.62818
G1 X90 Y136.324 E13.44677
G1 X87.741 Y135.927 E13.65531
G1 X85.753 Y134.784 E13.86385
G1 X84.274 Y133.031 E14.0724
G1 X83.481 Y130.879 E14.28094
G1 X83.375 Y129.699 E14.38865
G1 X83.375 Y70.301 E19.78968
G1 X83.772 Y68.042 E19.99823
G1 X84.886 Y66.106 E20.20131
G1 E18.20131 F2400
G92 E0
G1 X103.841 Y94.655 F7800
G1 E2 F2400
;TYPE:External perimeter
G1 F1800
G1 X104.271 Y94.401 E2.04538
G1 X104.735 Y94.234 E2.09025
G1 X105.068 Y94.17 E2.12101
G1 X105.401 Y94.149 E2.15134
G1 X105.897 Y94.195 E2.19665
G1 X106.376 Y94.335 E2.24205
G1 X106.821 Y94.561 E2.28743
G1 X107.211 Y94.864 E2.33231
G1 X107.442 Y95.11 E2.36308
G1 X107.641 Y95.384 E2.39386
G1 X107.865 Y95.824 E2.43873
G1 X108.005 Y96.303 E2.48411
G1 X108.052 Y96.8 E2.52949
G1 X108.005 Y97.297 E2.57487
G1 X107.865 Y97.776 E2.62025
G1 X107.639 Y98.221 E2.66563
G1 X107.336 Y98.611 E2.71051
G1 X107.09 Y98.842 E2.74128
G1 X106.816 Y99.041 E2.77205
G1 X106.376 Y99.265 E2.81693
G1 X105.897 Y99.405 E2.86231
G1 X105.4 Y99.452 E2.90769
G1 X104.903 Y99.405 E2.95307
G1 X104.424 Y99.265 E2.99845
G1 X103.984 Y99.041 E3.04332
G1 X103.71 Y98.842 E3.0741
G1 X103.464 Y98.611 E3.10486
G1 X103.161 Y98.221 E3.14975
G1 X102.935 Y97.776 E3.19512
G1 X102.795 Y97.297 E3.24051
G1 X102.748 Y96.8 E3.28589
G1 X102.795 Y96.303 E3.33127
G1 X102.935 Y95.824 E3.37665
G1 X103.161 Y95.379 E3.42202
G1 X103.467 Y94.985 E3.46742
G1 X103.796 Y94.695 E3.50733
G1 X103.8 Y94.257 F7800
G1 E1.50733 F2400
G92 E0
G1 X102.783 Y92.947 F7800
G1 E2 F2400
;TYPE:Perimeter
G1 F1800
G1 X102.207 Y93.249 E2.05914
G1 X101.614 Y93.421 E2.11526
G1 X101 Y93.479 E2.17139
G1 X100.386 Y93.421 E2.22751
G1 X99.793 Y93.249 E2.28363
G1 X99.257 Y92.976 E2.33835
G1 X98.911 Y92.725 E2.37717
G1 X98.6 Y92.433 E2.41598
G1 X98.231 Y91.957 E2.47071
G1 X97.951 Y91.407 E2.52683
G1 X97.779 Y90.814 E2.58295
G1 X97.721 Y90.2 E2.63907
G1 X97.779 Y89.586 E2.6952
G1 X97.951 Y88.993 E2.75132
G1 X98.231 Y88.443 E2.80744
G1 X98.61 Y87.955 E2.86358
G1 X99.073 Y87.547 E2.91969
G1 X99.604 Y87.233 E2.97581
G1 X100.17 Y87.029 E3.03052
G1 X100.589 Y86.949 E3.06931
G1 X101.01 Y86.922 E3.10766
G1 X101.614 Y86.979 E3.16282
G1 X102.207 Y87.151 E3.219
G1 X102.757 Y87.431 E3.27512
G1 X103.233 Y87.8 E3.32985
G1 X103.525 Y88.111 E3.36866
G1 X103.776 Y88.457 E3.40749
G1 X104.049 Y88.993 E3.4622
G1 X104.221 Y89.586 E3.51832
G1 X104.279 Y90.2 E3.57445
G1 X104.221 Y90.814 E3.63057
G1 X104.049 Y91.407 E3.68669
G1 X103.769 Y91.957 E3.74281
G1 X103.4 Y92.433 E3.79754
G1 X103.089 Y92.725 E3.83635
G1 X102.832 Y92.912 E3.86524
G1 X102.416 Y92.441 F7800
;TYPE:External perimeter
G1 F1800
G1 X101.976 Y92.665 E3.91012
G1 X101.497 Y92.805 E3.9555
G1 X101 Y92.852 E4.00088
G1 X100.503 Y92.805 E4.04626
G1 X100.024 Y92.665 E4.09164
G1 X99.584 Y92.441 E4.13652
G1 X99.31 Y92.242 E4.16729
G1 X99.064 Y92.011 E4.19805
G1 X98.761 Y91.621 E4.24294
G1 X98.535 Y91.176 E4.28832
G1 X98.395 Y90.697 E4.3337
G1 X98.348 Y90.2 E4.37908
G1 X98.395 Y89.703 E4.42446
G1 X98.535 Y89.224 E4.46984
G1 X98.761 Y88.779 E4.51522
G1 X99.067 Y88.385 E4.56061
G1 X99.441 Y88.055 E4.60598
G1 X99.871 Y87.801 E4.65136
G1 X100.335 Y87.634 E4.69623
G1 X100.668 Y87.57 E4.72699
G1 X101.001 Y87.549 E4.75732
G1 X101.497 Y87.595 E4.80263
G1 X101.976 Y87.735 E4.84803
G1 X102.421 Y87.961 E4.89341
G1 X102.811 Y88.264 E4.93829
G1 X103.042 Y88.51 E4.96906
G1 X103.241 Y88.784 E4.99983
G1 X103.465 Y89.224 E5.04471
G1 X103.605 Y89.703 E5.09009
G1 X103.652 Y90.2 E5.13547
G1 X103.605 Y90.697 E5.18085
G1 X103.465 Y91.176 E5.22623
G1 X103.239 Y91.621 E5.27161
G1 X102.936 Y92.011 E5.31649
G1 X102.69 Y92.242 E5.34726
G1 X102.464 Y92.406 E5.37258
G1 X102.424 Y92.841 F7800
G1 E3.37258 F2400
G92 E0
G1 X102.15 Y120.599 F7800
G1 E2 F2400
;TYPE:Perimeter
G1 F1800
G1 X100.9 Y120.599 E2.11364
G1 X100.9 Y128.099 E2.79561
G1 X99.1 Y128.099 E2.95933
G1 X99.1 Y120.599 E3.6413
G1 X91.6 Y120.599 E4.32327
G1 X91.6 Y79.401 E8.06943
G1 X99.1 Y79.401 E8.7514
G1 X99.1 Y71.901 E9.43337
G1 X100.9 Y71.901 E9.59709
G1 X100.9 Y79.401 E10.27906
G1 X108.4 Y79.401 E10.96103
G1 X108.4 Y94.305 E12.31623
G1 X108.055 Y93.937 E12.36215
G1 X107.493 Y93.501 E12.42672
G1 X106.838 Y93.167 E12.49358
G1 X106.131 Y92.962 E12.56055
G1 X105.419 Y92.896 E12.62557
G1 X104.91 Y92.928 E12.67193
G1 X104.404 Y93.025 E12.71876
G1 X103.946 Y93.19 E12.76309
G1 X103.78 Y92.962 E12.78869
G1 X104.299 Y92.293 E12.86562
G1 X104.633 Y91.638 E12.93248
G1 X104.838 Y90.932 E12.99935
G1 X104.907 Y90.2 E13.06621
G1 X104.838 Y89.468 E13.13308
G1 X104.633 Y88.762 E13.19994
G1 X104.31 Y88.129 E13.2645
G1 X104.007 Y87.712 E13.31138
G1 X103.655 Y87.337 E13.35823
G1 X103.093 Y86.901 E13.4228
G1 X102.438 Y86.567 E13.48966
G1 X101.731 Y86.362 E13.55662
G1 X101.019 Y86.296 E13.62165
G1 X100.51 Y86.328 E13.668
G1 X100.004 Y86.425 E13.71483
G1 X99.336 Y86.665 E13.77938
G1 X98.704 Y87.039 E13.84624
G1 X98.152 Y87.525 E13.91309
G1 X97.701 Y88.107 E13.97997
G1 X97.367 Y88.762 E14.04683
G1 X97.162 Y89.468 E14.1137
G1 X97.093 Y90.2 E14.18057
G1 X97.162 Y90.932 E14.24743
G1 X97.367 Y91.638 E14.3143
G1 X97.701 Y92.293 E14.38116
G1 X98.137 Y92.855 E14.44573
G1 X98.512 Y93.207 E14.49258
G1 X98.929 Y93.51 E14.53946
G1 X99.562 Y93.833 E14.60402
G1 X100.268 Y94.038 E14.67088
G1 X101 Y94.107 E14.73775
G1 X101.732 Y94.038 E14.80461
G1 X102.455 Y93.828 E14.87308
G1 X102.608 Y94.053 E14.89785
G1 X102.101 Y94.707 E14.97307
G1 X101.767 Y95.362 E15.03994
G1 X101.562 Y96.068 E15.1068
G1 X101.493 Y96.8 E15.17367
G1 X101.562 Y97.532 E15.24053
G1 X101.767 Y98.238 E15.3074
G1 X102.101 Y98.893 E15.37426
G1 X102.536 Y99.454 E15.43883
G1 X102.912 Y99.807 E15.48568
G1 X103.329 Y100.11 E15.53256
G1 X103.962 Y100.433 E15.59712
G1 X104.668 Y100.638 E15.66399
G1 X105.4 Y100.707 E15.73085
G1 X106.132 Y100.638 E15.79771
G1 X106.838 Y100.433 E15.86458
G1 X107.471 Y100.11 E15.92914
G1 X107.888 Y99.807 E15.97601
G1 X108.4 Y99.326 E16.03992
G1 X108.4 Y112.505 E17.23824
G1 X108.054 Y112.137 E17.28416
G1 X107.493 Y111.701 E17.34873
G1 X106.838 Y111.367 E17.41559
G1 X106.131 Y111.162 E17.48256
G1 X105.419 Y111.096 E17.54758
G1 X104.838 Y111.132 E17.60054
G1 X104.907 Y110.4 E17.66744
G1 X104.838 Y109.668 E17.73431
G1 X104.633 Y108.962 E17.80118
G1 X104.31 Y108.329 E17.86573
G1 X104.007 Y107.912 E17.91261
G1 X103.655 Y107.537 E17.95946
G1 X103.093 Y107.101 E18.02403
G1 X102.438 Y106.767 E18.09089
G1 X101.731 Y106.562 E18.15786
G1 X101.019 Y106.496 E18.22288
G1 X100.51 Y106.528 E18.26924
G1 X100.004 Y106.625 E18.31606
G1 X99.336 Y106.865 E18.38061
G1 X98.704 Y107.239 E18.44747
G1 X98.152 Y107.725 E18.51432
G1 X97.701 Y108.307 E18.58121
G1 X97.367 Y108.962 E18.64807
G1 X97.162 Y109.668 E18.71494
G1 X97.093 Y110.4 E18.7818
G1 X97.162 Y111.132 E18.84866
G1 X97.367 Y111.838 E18.91553
G1 X97.701 Y112.493 E18.98239
G1 X98.137 Y113.055 E19.04696
G1 X98.512 Y113.407 E19.09381
G1 X98.929 Y113.71 E19.14069
G1 X99.562 Y114.033 E19.20525
G1 X100.268 Y114.238 E19.27211
G1 X101 Y114.307 E19.33898
G1 X101.564 Y114.254 E19.39045
G1 X101.493 Y115 E19.45862
G1 X101.562 Y115.732 E19.52548
G1 X101.767 Y116.438 E19.59235
G1 X102.102 Y117.094 E19.65931
G1 X102.541 Y117.659 E19.72434
G1 X102.912 Y118.007 E19.77067
G1 X103.329 Y118.31 E19.81751
G1 X103.962 Y118.633 E19.88207
G1 X104.668 Y118.838 E19.94893
G1 X105.4 Y118.907 E20.0158
G1 X106.132 Y118.838 E20.08266
G1 X106.838 Y118.633 E20.14953
G1 X107.471 Y118.31 E20.21409
G1 X107.888 Y118.007 E20.26096
G1 X108.4 Y117.526 E20.32487
G1 X108.4 Y120.599 E20.60431
G1 X102.21 Y120.599 E21.16718
G1 E19.16718 F2400
G92 E0
G1 X108.475 Y71.826 F7800
G1 E2 F2400
G1 F1800
G1 X108.475 Y78.776 E2.63194
G1 X101.525 Y78.776 E3.26388
G1 X101.525 Y71.826 E3.89582
G1 X108.415 Y71.826 E4.52231
G1 X107.85 Y72.451 F7800
;TYPE:External perimeter
G1 F1800
G1 X107.85 Y78.151 E5.0406
G1 X102.15 Y78.151 E5.5589
G1 X102.15 Y72.451 E6.0772
G1 X107.79 Y72.451 E6.59004
G1 X108.236 Y72.347 F7800
G1 E4.59004 F2400
G92 E0
G1 X98.475 Y71.826 F7800
G1 E2 F2400
;TYPE:Perimeter
G1 F1800
G1 X98.475 Y78.776 E2.63194
G1 X91.525 Y78.776 E3.26388
G1 X91.525 Y71.826 E3.89582
G1 X98.415 Y71.826 E4.52231
G1 X97.85 Y72.451 F7800
;TYPE:External perimeter
G1 F1800
G1 X97.85 Y78.151 E5.0406
G1 X92.15 Y78.151 E5.5589
G1 X92.15 Y72.451 E6.0772
G1 X97.79 Y72.451 E6.59004
G1 X98.236 Y72.347 F7800
G1 E4.59004 F2400
G92 E0
G1 X98.475 Y121.224 F7800
G1 E2 F2400
;TYPE:Perimeter
G1 F1800
G1 X98.475 Y128.174 E2.63194
G1 X91.525 Y128.174 E3.26388
G1 X91.525 Y121.224 E3.89582
G1 X98.415 Y121.224 E4.52231
G1 X97.85 Y121.849 F7800
;TYPE:External perimeter
G1 F1800
G1 X97.85 Y127.549 E5.04061
G1 X92.15 Y127.549 E5.5589
G1 X92.15 Y121.849 E6.0772
G1 X97.79 Y121.849 E6.59005
G1 X98.236 Y121.745 F7800
G1 E4.59005 F2400
G92 E0
G1 X101.525 Y121.224 F7800
G1 E2 F2400
;TYPE:Perimeter
G1 F1800
G1 X108.475 Y121.224 E2.63194
G1 X108.475 Y128.174 E3.26388
G1 X101.525 Y128.174 E3.89582
G1 X101.525 Y121.284 E4.52231
G1 X102.15 Y121.849 F7800
;TYPE:External perimeter
G1 F1800
G1 X107.85 Y121.849 E5.0406
G1 X107.85 Y127.549 E5.5589
G1 X102.15 Y127.549 E6.0772
G1 X102.15 Y121.909 E6.59005
G1 X102.046 Y121.463 F7800
G1 E4.59005 F2400
G92 E0
G1 X104.004 Y93.833 F7800
G1 E2 F2400
;TYPE:Perimeter
G1 F1800
G1 X103.473 Y94.147 E2.05612
G1 X103.01 Y94.555 E2.11223
G1 X102.631 Y95.043 E2.16837
G1 X102.351 Y95.593 E2.22449
G1 X102.179 Y96.185 E2.28061
G1 X102.121 Y96.8 E2.33673
G1 X102.179 Y97.414 E2.39285
G1 X102.351 Y98.007 E2.44898
G1 X102.631 Y98.557 E2.5051
G1 X103 Y99.033 E2.55982
G1 X103.311 Y99.325 E2.59863
G1 X103.657 Y99.576 E2.63746
G1 X104.193 Y99.849 E2.69218
G1 X104.786 Y100.021 E2.7483
G1 X105.4 Y100.079 E2.80442
G1 X106.014 Y100.021 E2.86054
G1 X106.607 Y99.849 E2.91667
G1 X107.143 Y99.576 E2.97138
G1 X107.489 Y99.325 E3.01021
G1 X107.8 Y99.033 E3.04902
G1 X108.169 Y98.557 E3.10374
G1 X108.449 Y98.007 E3.15986
G1 X108.621 Y97.414 E3.21599
G1 X108.668 Y96.921 E3.26108
G1 X109.025 Y96.938 E3.29361
G1 X109.025 Y114.862 E4.92351
G1 X108.668 Y114.879 E4.95603
G1 X108.621 Y114.386 E5.00113
G1 X108.449 Y113.793 E5.05725
G1 X108.176 Y113.257 E5.11197
G1 X107.925 Y112.911 E5.15079
G1 X107.633 Y112.6 E5.1896
G1 X107.157 Y112.231 E5.24433
G1 X106.607 Y111.951 E5.30045
G1 X106.014 Y111.779 E5.35663
G1 X105.41 Y111.722 E5.41179
G1 X104.989 Y111.749 E5.45014
G1 X104.57 Y111.829 E5.48894
G1 X103.794 Y112.109 E5.56396
G1 X104.049 Y111.607 E5.61512
G1 X104.221 Y111.014 E5.67124
G1 X104.279 Y110.4 E5.72737
G1 X104.221 Y109.786 E5.78349
G1 X104.049 Y109.193 E5.83961
G1 X103.776 Y108.657 E5.89433
G1 X103.525 Y108.311 E5.93315
G1 X103.233 Y108 E5.97196
G1 X102.757 Y107.631 E6.02669
G1 X102.207 Y107.351 E6.08281
G1 X101.614 Y107.179 E6.13899
G1 X101.01 Y107.122 E6.19416
G1 X100.589 Y107.149 E6.2325
G1 X100.17 Y107.229 E6.27129
G1 X99.604 Y107.433 E6.326
G1 X99.073 Y107.747 E6.38212
G1 X98.61 Y108.155 E6.43823
G1 X98.231 Y108.643 E6.49437
G1 X97.951 Y109.193 E6.55049
G1 X97.779 Y109.786 E6.60662
G1 X97.721 Y110.4 E6.66274
G1 X97.779 Y111.014 E6.71886
G1 X97.951 Y111.607 E6.77499
G1 X98.231 Y112.157 E6.83111
G1 X98.6 Y112.633 E6.88583
G1 X98.911 Y112.925 E6.92464
G1 X99.257 Y113.176 E6.96347
G1 X99.793 Y113.449 E7.01818
G1 X100.386 Y113.621 E7.0743
G1 X101 Y113.679 E7.13043
G1 X101.614 Y113.621 E7.18655
G1 X102.582 Y113.34 E7.27813
G1 X102.351 Y113.793 E7.32433
G1 X102.179 Y114.386 E7.38045
G1 X102.121 Y115 E7.43658
G1 X102.179 Y115.614 E7.4927
G1 X102.351 Y116.207 E7.54882
G1 X102.632 Y116.758 E7.605
G1 X103.004 Y117.237 E7.66017
G1 X103.311 Y117.525 E7.6985
G1 X103.657 Y117.776 E7.7373
G1 X104.193 Y118.049 E7.79202
G1 X104.786 Y118.221 E7.84814
G1 X105.4 Y118.279 E7.90426
G1 X106.014 Y118.221 E7.96038
G1 X106.607 Y118.049 E8.01651
G1 X107.143 Y117.776 E8.07123
G1 X107.489 Y117.525 E8.11005
G1 X107.8 Y117.233 E8.14886
G1 X108.169 Y116.757 E8.20359
G1 X108.449 Y116.207 E8.25971
G1 X108.621 Y115.614 E8.31583
G1 X108.668 Y115.121 E8.36092
G1 X109.025 Y115.138 E8.39345
G1 X109.025 Y128.724 E9.62887
G1 X90.975 Y128.724 E11.27017
G1 X90.975 Y71.276 E16.49391
G1 X109.025 Y71.276 E18.13521
G1 X109.025 Y96.662 E20.4436
G1 X108.668 Y96.679 E20.47612
G1 X108.621 Y96.186 E20.52121
G1 X108.449 Y95.593 E20.57734
G1 X108.176 Y95.057 E20.63206
G1 X107.925 Y94.711 E20.67088
G1 X107.633 Y94.4 E20.70969
G1 X107.157 Y94.031 E20.76442
G1 X106.607 Y93.751 E20.82054
G1 X106.014 Y93.579 E20.87672
G1 X105.41 Y93.522 E20.93188
G1 X104.989 Y93.549 E20.97023
G1 X104.57 Y93.629 E21.00902
G1 X104.06 Y93.813 E21.05828
G1 E19.05828 F2400
G92 E0
G1 X101.497 Y107.795 F7800
G1 E2 F2400
;TYPE:External perimeter
G1 F1800
G1 X101.976 Y107.935 E2.0454
G1 X102.421 Y108.161 E2.09078
G1 X102.811 Y108.464 E2.13566
G1 X103.042 Y108.71 E2.16643
G1 X103.241 Y108.984 E2.1972
G1 X103.465 Y109.424 E2.24208
G1 X103.605 Y109.903 E2.28746
G1 X103.652 Y110.4 E2.33284
G1 X103.605 Y110.897 E2.37822
G1 X103.465 Y111.376 E2.4236
G1 X103.239 Y111.821 E2.46898
G1 X102.936 Y112.211 E2.51386
G1 X102.69 Y112.442 E2.54463
G1 X102.416 Y112.641 E2.5754
G1 X101.976 Y112.865 E2.62027
G1 X101.497 Y113.005 E2.66565
G1 X101 Y113.052 E2.71104
G1 X100.503 Y113.005 E2.75642
G1 X100.024 Y112.865 E2.8018
G1 X99.584 Y112.641 E2.84667
G1 X99.31 Y112.442 E2.87745
G1 X99.064 Y112.211 E2.90821
G1 X98.761 Y111.821 E2.95309
G1 X98.535 Y111.376 E2.99847
G1 X98.395 Y110.897 E3.04385
G1 X98.348 Y110.4 E3.08923
G1 X98.395 Y109.903 E3.13462
G1 X98.535 Y109.424 E3.18
G1 X98.761 Y108.979 E3.22537
G1 X99.067 Y108.585 E3.27076
G1 X99.441 Y108.255 E3.31614
G1 X99.871 Y108.001 E3.36151
G1 X100.335 Y107.834 E3.40639
G1 X100.668 Y107.77 E3.43715
G1 X101.001 Y107.749 E3.46748
G1 X101.437 Y107.79 E3.50733
G1 X101.761 Y107.495 F7800
G1 E1.50733 F2400
G92 E0
G1 X104.271 Y112.601 F7800
G1 E2 F2400
G1 F1800
G1 X104.735 Y112.434 E2.04487
G1 X105.068 Y112.37 E2.07564
G1 X105.401 Y112.349 E2.10597
G1 X105.897 Y112.395 E2.15127
G1 X106.376 Y112.535 E2.19668
G1 X106.821 Y112.761 E2.24205
G1 X107.211 Y113.064 E2.28694
G1 X107.442 Y113.31 E2.3177
G1 X107.641 Y113.584 E2.34848
G1 X107.865 Y114.024 E2.39335
G1 X108.005 Y114.503 E2.43873
G1 X108.052 Y115 E2.48411
G1 X108.005 Y115.497 E2.52949
G1 X107.865 Y115.976 E2.57487
G1 X107.639 Y116.421 E2.62025
G1 X107.336 Y116.811 E2.66513
G1 X107.09 Y117.042 E2.6959
G1 X106.816 Y117.241 E2.72667
G1 X106.376 Y117.465 E2.77155
G1 X105.897 Y117.605 E2.81693
G1 X105.4 Y117.652 E2.86231
G1 X104.903 Y117.605 E2.90769
G1 X104.424 Y117.465 E2.95307
G1 X103.984 Y117.241 E2.99794
G1 X103.71 Y117.042 E3.02871
G1 X103.467 Y116.814 E3.05903
G1 X103.161 Y116.421 E3.10434
G1 X102.935 Y115.976 E3.14974
G1 X102.795 Y115.497 E3.19512
G1 X102.748 Y115 E3.24051
G1 X102.795 Y114.503 E3.28589
G1 X102.935 Y114.024 E3.33127
G1 X103.161 Y113.579 E3.37664
G1 X103.467 Y113.185 E3.42203
G1 X103.841 Y112.855 E3.46741
G1 X104.219 Y112.631 E3.50733
G1 X104.304 Y112.202 F7800
G1 E1.50733 F2400
G92 E0
G1 X109.65 Y129.349 F7800
G1 E2 F2400
G1 F1800
G1 X90.35 Y129.349 E3.75494
G1 X90.35 Y70.651 E9.09233
G1 X109.65 Y70.651 E10.84727
