; generated by PrusaSlicer 2.4.1+linux-x64-GTK3 on 2022-04-29 at 22:54:25 UTC

; 

; external perimeters extrusion width = 0.45mm
; perimeters extrusion width = 0.45mm
; infill extrusion width = 0.45mm
; solid infill extrusion width = 0.45mm
; top infill extrusion width = 0.40mm
; support material extrusion width = 0.35mm
; first layer extrusion width = 0.42mm

M107
M190 S55 ; set bed temperature and wait for it to be reached
M104 S215 ; set temperature
;TYPE:Custom
G28 ; home all axes
G1 Z5 F5000 ; lift nozzle
M109 S215 ; set temperature and wait for it to be reached
G21 ; set units to millimeters
G90 ; use absolute coordinates
M82 ; use absolute distances for extrusion
G92 E0
; Filament gcode
M107
;LAYER_CHANGE
;Z:0.4
;HEIGHT:0.4
G1 Z.4 F7800
G1 E-2 F2400
G92 E0
G1 X5.716 Y7.711 F7800
G1 E2 F2400
;TYPE:Skirt/Brim
;WIDTH:0.42
G1 F1440
G1 X7.345 Y6.831 E2.09262
G1 X8.304 Y6.669 E2.14125
G1 X11.043 Y6.525 E2.27842
G1 X41.077 Y6.525 E3.78054
G1 X58.577 Y6.663 E4.65581
G1 X60.383 Y7.073 E4.74843
G1 X61.853 Y8.198 E4.84105
G1 X62.72 Y9.835 E4.93366
G1 X62.88 Y10.999 E4.99246
G1 X62.88 Y54.999 E7.19307
G1 X62.484 Y56.809 E7.28568
G1 X61.37 Y58.288 E7.3783
G1 X59.741 Y59.167 E7.47092
G1 X58.577 Y59.336 E7.52971
G1 X41.043 Y59.474 E8.40669
G1 X11.043 Y59.474 E9.90711
G1 X8.304 Y59.33 E10.04428
G1 X6.519 Y58.835 E10.1369
G1 X5.104 Y57.641 E10.22951
G1 X4.315 Y55.966 E10.32213
G1 X4.206 Y54.999 E10.37076
G1 X4.206 Y10.999 E12.57137
G1 X4.602 Y9.19 E12.66398
G1 X5.68 Y7.759 E12.7536
G1 X5.958 Y7.98 F7800
G1 F1440
G1 X6.043 Y7.874 E12.76039
G1 X8.322 Y7.003 E12.88246
G1 X11.043 Y6.859 E13.01871
G1 X41.074 Y6.859 E14.52071
G1 X58.574 Y6.997 E15.39597
G1 X60.305 Y7.406 E15.48491
G1 X61.688 Y8.524 E15.57384
G1 X62.545 Y10.999 E15.70488
G1 X62.545 Y54.999 E17.90549
G1 X62.15 Y56.733 E17.99442
G1 X61.043 Y58.125 E18.08336
G1 X58.574 Y59.002 E18.2144
G1 X41.043 Y59.14 E19.09124
G1 X11.043 Y59.14 E20.59166
G1 X8.322 Y58.996 E20.72791
G1 X6.613 Y58.506 E20.81684
G1 X5.285 Y57.324 E20.90578
G1 X4.54 Y54.999 E21.02785
G1 X4.54 Y10.999 E23.22845
G1 X4.935 Y9.266 E23.31739
G1 X5.921 Y8.027 E23.39653
G1 X6.19 Y8.255 F7800
G1 F1440
G1 X6.368 Y8.045 E23.41029
G1 X8.341 Y7.337 E23.51513
G1 X11.043 Y7.193 E23.65047
G1 X41.072 Y7.193 E25.15233
G1 X58.572 Y7.331 E26.02759
G1 X60.224 Y7.739 E26.11269
G1 X61.514 Y8.848 E26.19778
G1 X62.211 Y10.999 E26.3109
G1 X62.211 Y54.999 E28.51151
G1 X61.817 Y56.654 E28.5966
G1 X60.718 Y57.953 E28.68169
G1 X58.572 Y58.668 E28.79481
G1 X41.043 Y58.806 E29.67153
G1 X11.043 Y58.806 E31.17194
G1 X8.341 Y58.662 E31.30728
G1 X6.71 Y58.177 E31.39237
G1 X5.474 Y57.008 E31.47746
G1 X4.875 Y54.999 E31.58231
G1 X4.875 Y10.999 E33.78292
G1 X5.269 Y9.344 E33.86801
G1 X6.152 Y8.301 E33.93634
G1 X6.411 Y8.536 F7800
G1 F1440
G1 X6.692 Y8.226 E33.95726
G1 X8.359 Y7.67 E34.04518
G1 X10.859 Y7.532 E34.1704
G1 X41.069 Y7.527 E35.68132
G1 X58.569 Y7.665 E36.55659
G1 X60.138 Y8.072 E36.63766
G1 X61.33 Y9.17 E36.71872
G1 X61.877 Y10.999 E36.81421
G1 X61.877 Y54.999 E39.01482
G1 X61.483 Y56.572 E39.09589
G1 X60.394 Y57.772 E39.17696
G1 X58.569 Y58.334 E39.27245
G1 X41.043 Y58.472 E40.14903
G1 X11.043 Y58.472 E41.64945
G1 X8.359 Y58.329 E41.78386
G1 X6.811 Y57.849 E41.86492
G1 X5.672 Y56.695 E41.94599
G1 X5.209 Y54.999 E42.03391
G1 X5.209 Y10.999 E44.23452
G1 X5.603 Y9.427 E44.31559
G1 X6.37 Y8.581 E44.37273
G1 E42.37273 F2400
G92 E0
G1 X23.185 Y23.871 F7800
G1 E2 F2400
;TYPE:Perimeter
G1 F360
G1 X23.672 Y23.425 E2.03306
G1 X24.176 Y23.127 E2.06232
G1 X24.56 Y22.975 E2.08298
G1 X24.96 Y22.872 E2.10364
G1 X25.541 Y22.817 E2.1328
G1 X26.139 Y22.873 E2.16285
G1 X26.714 Y23.041 E2.19283
G1 X27.248 Y23.313 E2.22278
G1 X27.71 Y23.671 E2.25204
G1 X27.993 Y23.972 E2.2727
G1 X28.236 Y24.307 E2.29337
G1 X28.502 Y24.828 E2.32264
G1 X28.669 Y25.403 E2.35259
G1 X28.725 Y25.999 E2.38255
G1 X28.669 Y26.596 E2.4125
G1 X28.502 Y27.171 E2.44246
G1 X28.236 Y27.692 E2.47172
G1 X27.993 Y28.027 E2.49239
G1 X27.71 Y28.328 E2.51305
G1 X27.248 Y28.686 E2.54231
G1 X26.714 Y28.958 E2.57227
G1 X26.139 Y29.125 E2.60223
G1 X25.543 Y29.182 E2.63218
G1 X24.947 Y29.125 E2.66214
G1 X24.371 Y28.958 E2.6921
G1 X23.838 Y28.686 E2.72205
G1 X23.375 Y28.328 E2.75131
G1 X23.093 Y28.027 E2.77198
G1 X22.85 Y27.692 E2.79265
G1 X22.584 Y27.171 E2.82191
G1 X22.417 Y26.596 E2.85186
G1 X22.361 Y25.999 E2.88182
G1 X22.417 Y25.403 E2.91177
G1 X22.584 Y24.828 E2.94173
G1 X22.856 Y24.294 E2.97169
G1 X23.148 Y23.918 E2.99549
G1 X23.449 Y24.076 F7800
G1 F360
G1 X23.87 Y23.697 E3.02383
G1 X24.323 Y23.428 E3.0502
G1 X24.664 Y23.294 E3.0685
G1 X25.018 Y23.202 E3.08679
G1 X25.541 Y23.153 E3.11306
G1 X26.076 Y23.203 E3.13995
G1 X26.591 Y23.353 E3.16676
G1 X27.068 Y23.596 E3.19355
G1 X27.485 Y23.919 E3.21992
G1 X27.735 Y24.186 E3.23822
G1 X27.95 Y24.482 E3.25652
G1 X28.19 Y24.952 E3.28288
G1 X28.339 Y25.466 E3.30968
G1 X28.39 Y25.999 E3.33647
G1 X28.339 Y26.533 E3.36327
G1 X28.19 Y27.047 E3.39007
G1 X27.95 Y27.517 E3.41643
G1 X27.735 Y27.813 E3.43474
G1 X27.485 Y28.08 E3.45303
G1 X27.068 Y28.403 E3.4794
G1 X26.591 Y28.646 E3.50619
G1 X26.076 Y28.796 E3.533
G1 X25.543 Y28.846 E3.55979
G1 X25.01 Y28.796 E3.58658
G1 X24.495 Y28.646 E3.61338
G1 X24.018 Y28.403 E3.64018
G1 X23.601 Y28.08 E3.66655
G1 X23.351 Y27.813 E3.68484
G1 X23.136 Y27.517 E3.70314
G1 X22.896 Y27.047 E3.72951
G1 X22.747 Y26.533 E3.75631
G1 X22.696 Y25.999 E3.7831
G1 X22.747 Y25.466 E3.8099
G1 X22.896 Y24.951 E3.8367
G1 X23.139 Y24.474 E3.86349
G1 X23.412 Y24.123 E3.88571
G1 X23.713 Y24.281 F7800
;TYPE:External perimeter
G1 F360
G1 X24.067 Y23.968 E3.90934
G1 X24.471 Y23.729 E3.93281
G1 X24.767 Y23.612 E3.94875
G1 X25.076 Y23.533 E3.96468
G1 X25.541 Y23.489 E3.98805
G1 X26.013 Y23.533 E4.01179
G1 X26.467 Y23.665 E4.03543
G1 X26.888 Y23.879 E4.05906
G1 X27.259 Y24.167 E4.08254
G1 X27.477 Y24.399 E4.09846
G1 X27.665 Y24.657 E4.1144
G1 X27.878 Y25.075 E4.13787
G1 X28.009 Y25.529 E4.16151
G1 X28.054 Y25.999 E4.18514
G1 X28.009 Y26.47 E4.20878
G1 X27.878 Y26.924 E4.23242
G1 X27.665 Y27.342 E4.25589
G1 X27.477 Y27.6 E4.27182
G1 X27.259 Y27.832 E4.28775
G1 X26.888 Y28.12 E4.31123
G1 X26.467 Y28.334 E4.33486
G1 X26.013 Y28.466 E4.3585
G1 X25.543 Y28.51 E4.38213
G1 X25.072 Y28.466 E4.40577
G1 X24.619 Y28.334 E4.42941
G1 X24.198 Y28.12 E4.45304
G1 X23.827 Y27.832 E4.47652
G1 X23.609 Y27.6 E4.49245
G1 X23.421 Y27.342 E4.50838
G1 X23.208 Y26.924 E4.53185
G1 X23.076 Y26.47 E4.55549
G1 X23.032 Y25.999 E4.57913
G1 X23.076 Y25.529 E4.60276
G1 X23.208 Y25.075 E4.6264
G1 X23.423 Y24.654 E4.65004
G1 X23.676 Y24.328 E4.67068
G1 X23.597 Y23.898 F7800
G1 E2.67068 F2400
G92 E0
G1 X41.367 Y26.062 F7800
G1 E2 F2400
;TYPE:Perimeter
G1 F360
G1 X41.417 Y25.403 E2.03307
G1 X41.584 Y24.828 E2.06302
G1 X41.856 Y24.294 E2.09298
G1 X42.223 Y23.821 E2.12294
G1 X42.673 Y23.425 E2.15289
G1 X43.176 Y23.127 E2.18215
G1 X43.56 Y22.975 E2.20281
G1 X43.958 Y22.873 E2.22336
G1 X44.54 Y22.817 E2.25262
G1 X45.139 Y22.873 E2.28269
G1 X45.714 Y23.041 E2.31265
G1 X46.248 Y23.313 E2.34262
G1 X46.712 Y23.673 E2.37198
G1 X46.993 Y23.972 E2.39254
G1 X47.236 Y24.307 E2.41321
G1 X47.502 Y24.828 E2.44246
G1 X47.669 Y25.403 E2.47242
G1 X47.725 Y25.999 E2.50237
G1 X47.669 Y26.596 E2.53233
G1 X47.502 Y27.171 E2.56229
G1 X47.23 Y27.705 E2.59224
G1 X46.871 Y28.167 E2.62151
G1 X46.57 Y28.45 E2.64217
G1 X46.238 Y28.691 E2.66273
G1 X45.715 Y28.958 E2.69209
G1 X45.139 Y29.125 E2.72206
G1 X44.543 Y29.182 E2.75201
G1 X43.947 Y29.125 E2.78196
G1 X43.371 Y28.958 E2.81192
G1 X42.85 Y28.693 E2.84118
G1 X42.516 Y28.45 E2.86185
G1 X42.215 Y28.167 E2.88252
G1 X41.856 Y27.705 E2.91178
G1 X41.584 Y27.171 E2.94173
G1 X41.417 Y26.596 E2.97169
G1 X41.372 Y26.122 E2.99548
G1 X41.699 Y26.031 F7800
G1 F360
G1 X41.747 Y25.466 E3.02383
G1 X41.896 Y24.952 E3.05063
G1 X42.139 Y24.474 E3.07743
G1 X42.468 Y24.051 E3.10422
G1 X42.87 Y23.697 E3.13102
G1 X43.323 Y23.428 E3.15738
G1 X43.664 Y23.294 E3.17568
G1 X44.016 Y23.203 E3.19387
G1 X44.541 Y23.153 E3.22023
G1 X45.076 Y23.203 E3.24714
G1 X45.591 Y23.353 E3.27394
G1 X46.068 Y23.596 E3.30074
G1 X46.486 Y23.921 E3.32721
G1 X46.735 Y24.186 E3.3454
G1 X46.95 Y24.482 E3.3637
G1 X47.19 Y24.952 E3.39006
G1 X47.339 Y25.466 E3.41686
G1 X47.39 Y25.999 E3.44366
G1 X47.339 Y26.533 E3.47046
G1 X47.19 Y27.047 E3.49725
G1 X46.946 Y27.525 E3.52405
G1 X46.623 Y27.941 E3.55041
G1 X46.357 Y28.192 E3.56871
G1 X46.062 Y28.406 E3.58691
G1 X45.591 Y28.646 E3.61337
G1 X45.076 Y28.796 E3.64018
G1 X44.543 Y28.846 E3.66697
G1 X44.01 Y28.796 E3.69377
G1 X43.495 Y28.646 E3.72056
G1 X43.025 Y28.407 E3.74693
G1 X42.729 Y28.192 E3.76523
G1 X42.463 Y27.941 E3.78353
G1 X42.139 Y27.525 E3.8099
G1 X41.896 Y27.047 E3.83669
G1 X41.747 Y26.533 E3.86349
G1 X41.705 Y26.091 E3.8857
G1 X42.032 Y25.999 F7800
;TYPE:External perimeter
G1 F360
G1 X42.076 Y25.529 E3.90934
G1 X42.208 Y25.075 E3.93298
G1 X42.423 Y24.654 E3.95661
G1 X42.713 Y24.281 E3.98025
G1 X43.067 Y23.968 E4.00389
G1 X43.471 Y23.729 E4.02735
G1 X43.767 Y23.612 E4.04329
G1 X44.074 Y23.533 E4.05912
G1 X44.541 Y23.489 E4.08259
G1 X45.013 Y23.533 E4.10633
G1 X45.467 Y23.665 E4.12996
G1 X45.888 Y23.879 E4.1536
G1 X46.261 Y24.168 E4.17717
G1 X46.477 Y24.399 E4.19301
G1 X46.665 Y24.657 E4.20894
G1 X46.878 Y25.075 E4.23241
G1 X47.009 Y25.529 E4.25605
G1 X47.054 Y25.999 E4.27968
G1 X47.009 Y26.47 E4.30332
G1 X46.878 Y26.924 E4.32695
G1 X46.663 Y27.345 E4.35059
G1 X46.375 Y27.716 E4.37406
G1 X46.143 Y27.934 E4.38999
G1 X45.887 Y28.12 E4.40583
G1 X45.467 Y28.334 E4.4294
G1 X45.013 Y28.466 E4.45304
G1 X44.543 Y28.51 E4.47667
G1 X44.072 Y28.466 E4.50031
G1 X43.619 Y28.334 E4.52394
G1 X43.2 Y28.121 E4.54741
G1 X42.943 Y27.934 E4.56335
G1 X42.71 Y27.716 E4.57928
G1 X42.423 Y27.345 E4.60275
G1 X42.208 Y26.924 E4.62639
G1 X42.076 Y26.47 E4.65003
G1 X42.038 Y26.059 E4.67066
G1 X41.686 Y25.799 F7800
G1 E2.67066 F2400
G92 E0
G1 X39.977 Y44.843 F7800
G1 E2 F2400
;TYPE:Perimeter
G1 F360
G1 X40.638 Y44.893 E2.03318
G1 X41.213 Y45.061 E2.06315
G1 X41.747 Y45.333 E2.0931
G1 X42.22 Y45.7 E2.12307
G1 X42.607 Y46.139 E2.15232
G1 X42.829 Y46.488 E2.17299
G1 X43.005 Y46.861 E2.19365
G1 X43.168 Y47.423 E2.22291
G1 X43.224 Y48.019 E2.25287
G1 X43.168 Y48.616 E2.28283
G1 X43.001 Y49.191 E2.31278
G1 X42.729 Y49.725 E2.34273
G1 X42.37 Y50.187 E2.372
G1 X42.069 Y50.47 E2.39266
G1 X41.737 Y50.711 E2.41321
G1 X41.216 Y50.977 E2.44247
G1 X40.638 Y51.145 E2.47253
G1 X40.042 Y51.202 E2.5025
G1 X39.446 Y51.145 E2.53246
G1 X38.871 Y50.978 E2.56241
G1 X38.349 Y50.713 E2.59167
G1 X38.015 Y50.47 E2.61234
G1 X37.714 Y50.187 E2.63301
G1 X37.355 Y49.725 E2.66227
G1 X37.083 Y49.191 E2.69222
G1 X36.916 Y48.616 E2.72218
G1 X36.86 Y48.019 E2.75214
G1 X36.916 Y47.423 E2.78209
G1 X37.083 Y46.848 E2.81205
G1 X37.355 Y46.314 E2.84201
G1 X37.722 Y45.841 E2.87196
G1 X38.171 Y45.445 E2.90191
G1 X38.675 Y45.147 E2.93118
G1 X39.059 Y44.995 E2.95183
G1 X39.457 Y44.893 E2.97239
G1 X39.917 Y44.849 E2.99548
G1 X40.008 Y45.176 F7800
G1 F360
G1 X40.575 Y45.223 E3.02394
G1 X41.09 Y45.373 E3.05074
G1 X41.567 Y45.616 E3.07754
G1 X41.991 Y45.944 E3.10434
G1 X42.339 Y46.34 E3.1307
G1 X42.535 Y46.649 E3.149
G1 X42.691 Y46.98 E3.1673
G1 X42.838 Y47.486 E3.19366
G1 X42.889 Y48.019 E3.22046
G1 X42.838 Y48.553 E3.24726
G1 X42.689 Y49.067 E3.27406
G1 X42.445 Y49.545 E3.30085
G1 X42.122 Y49.961 E3.32722
G1 X41.856 Y50.212 E3.34551
G1 X41.561 Y50.426 E3.36371
G1 X41.092 Y50.665 E3.39007
G1 X40.575 Y50.816 E3.41697
G1 X40.042 Y50.866 E3.44377
G1 X39.509 Y50.816 E3.47057
G1 X38.994 Y50.666 E3.49736
G1 X38.524 Y50.427 E3.52373
G1 X38.228 Y50.212 E3.54203
G1 X37.962 Y49.961 E3.56033
G1 X37.639 Y49.545 E3.5867
G1 X37.395 Y49.067 E3.61349
G1 X37.246 Y48.553 E3.64029
G1 X37.195 Y48.019 E3.66709
G1 X37.246 Y47.486 E3.69388
G1 X37.395 Y46.972 E3.72068
G1 X37.639 Y46.494 E3.74748
G1 X37.967 Y46.071 E3.77427
G1 X38.369 Y45.717 E3.80106
G1 X38.823 Y45.448 E3.82743
G1 X39.163 Y45.314 E3.84573
G1 X39.515 Y45.223 E3.86392
G1 X39.948 Y45.182 E3.8857
G1 X40.04 Y45.509 F7800
;TYPE:External perimeter
G1 F360
G1 X40.512 Y45.553 E3.90943
G1 X40.966 Y45.685 E3.93307
G1 X41.387 Y45.899 E3.95671
G1 X41.761 Y46.189 E3.98035
G1 X42.071 Y46.541 E4.00382
G1 X42.242 Y46.81 E4.01975
G1 X42.377 Y47.098 E4.03569
G1 X42.508 Y47.549 E4.05916
G1 X42.553 Y48.019 E4.08279
G1 X42.508 Y48.49 E4.10643
G1 X42.377 Y48.944 E4.13007
G1 X42.162 Y49.365 E4.1537
G1 X41.874 Y49.736 E4.17718
G1 X41.642 Y49.954 E4.1931
G1 X41.386 Y50.14 E4.20894
G1 X40.968 Y50.353 E4.23241
G1 X40.513 Y50.486 E4.25614
G1 X40.042 Y50.53 E4.27978
G1 X39.571 Y50.486 E4.30342
G1 X39.118 Y50.354 E4.32705
G1 X38.699 Y50.141 E4.35053
G1 X38.442 Y49.954 E4.36646
G1 X38.209 Y49.736 E4.38239
G1 X37.922 Y49.365 E4.40586
G1 X37.707 Y48.944 E4.4295
G1 X37.575 Y48.49 E4.45313
G1 X37.531 Y48.019 E4.47677
G1 X37.575 Y47.549 E4.50041
G1 X37.707 Y47.095 E4.52405
G1 X37.922 Y46.674 E4.54768
G1 X38.212 Y46.301 E4.57132
G1 X38.566 Y45.988 E4.59495
G1 X38.97 Y45.749 E4.61843
G1 X39.266 Y45.632 E4.63436
G1 X39.573 Y45.553 E4.65019
G1 X39.98 Y45.514 E4.67066
G1 X40.243 Y45.164 F7800
G1 E2.67066 F2400
G92 E0
G1 X28.651 Y47.342 F7800
G1 E2 F2400
;TYPE:Perimeter
G1 F360
G1 X28.725 Y47.999 E2.03306
G1 X28.669 Y48.596 E2.06302
G1 X28.502 Y49.171 E2.09298
G1 X28.236 Y49.692 E2.12224
G1 X27.993 Y50.027 E2.14291
G1 X27.71 Y50.328 E2.16357
G1 X27.248 Y50.686 E2.19284
G1 X26.714 Y50.958 E2.22279
G1 X26.139 Y51.125 E2.25275
G1 X25.543 Y51.182 E2.2827
G1 X24.947 Y51.125 E2.31266
G1 X24.371 Y50.958 E2.34261
G1 X23.838 Y50.686 E2.37257
G1 X23.375 Y50.328 E2.40183
G1 X23.093 Y50.027 E2.42249
G1 X22.85 Y49.692 E2.44316
G1 X22.584 Y49.171 E2.47242
G1 X22.417 Y48.596 E2.50238
G1 X22.361 Y47.999 E2.53233
G1 X22.417 Y47.403 E2.56229
G1 X22.584 Y46.828 E2.59225
G1 X22.856 Y46.294 E2.6222
G1 X23.223 Y45.821 E2.65217
G1 X23.672 Y45.425 E2.68212
G1 X24.176 Y45.127 E2.71138
G1 X24.56 Y44.975 E2.73204
G1 X24.958 Y44.873 E2.75259
G1 X25.54 Y44.817 E2.78184
G1 X26.139 Y44.873 E2.81191
G1 X26.714 Y45.041 E2.84188
G1 X27.248 Y45.313 E2.87183
G1 X27.71 Y45.671 E2.9011
G1 X27.993 Y45.972 E2.92176
G1 X28.236 Y46.307 E2.94243
G1 X28.502 Y46.828 E2.97169
G1 X28.634 Y47.285 E2.99549
G1 X28.33 Y47.436 F7800
G1 F360
G1 X28.39 Y47.999 E3.02384
G1 X28.339 Y48.533 E3.05063
G1 X28.19 Y49.047 E3.07743
G1 X27.95 Y49.517 E3.10379
G1 X27.735 Y49.813 E3.1221
G1 X27.485 Y50.08 E3.14039
G1 X27.068 Y50.403 E3.16676
G1 X26.591 Y50.646 E3.19356
G1 X26.076 Y50.796 E3.22036
G1 X25.543 Y50.846 E3.24715
G1 X25.01 Y50.796 E3.27395
G1 X24.495 Y50.646 E3.30074
G1 X24.018 Y50.403 E3.32754
G1 X23.601 Y50.08 E3.35391
G1 X23.351 Y49.813 E3.3722
G1 X23.136 Y49.517 E3.39051
G1 X22.896 Y49.047 E3.41687
G1 X22.747 Y48.533 E3.44367
G1 X22.696 Y47.999 E3.47046
G1 X22.747 Y47.466 E3.49726
G1 X22.896 Y46.952 E3.52406
G1 X23.139 Y46.474 E3.55085
G1 X23.468 Y46.051 E3.57766
G1 X23.87 Y45.697 E3.60445
G1 X24.323 Y45.428 E3.63081
G1 X24.664 Y45.294 E3.64911
G1 X25.016 Y45.203 E3.6673
G1 X25.541 Y45.153 E3.69366
G1 X26.076 Y45.203 E3.72056
G1 X26.591 Y45.353 E3.74737
G1 X27.068 Y45.596 E3.77416
G1 X27.485 Y45.919 E3.80053
G1 X27.735 Y46.186 E3.81883
G1 X27.95 Y46.482 E3.83713
G1 X28.19 Y46.952 E3.8635
G1 X28.314 Y47.378 E3.88571
G1 X28.009 Y47.529 F7800
;TYPE:External perimeter
G1 F360
G1 X28.054 Y47.999 E3.90935
G1 X28.009 Y48.47 E3.93298
G1 X27.878 Y48.924 E3.95662
G1 X27.665 Y49.342 E3.98009
G1 X27.477 Y49.6 E3.99603
G1 X27.259 Y49.832 E4.01196
G1 X26.888 Y50.12 E4.03543
G1 X26.467 Y50.334 E4.05906
G1 X26.013 Y50.466 E4.0827
G1 X25.543 Y50.51 E4.10634
G1 X25.072 Y50.466 E4.12998
G1 X24.619 Y50.334 E4.15361
G1 X24.198 Y50.12 E4.17725
G1 X23.827 Y49.832 E4.20072
G1 X23.609 Y49.6 E4.21665
G1 X23.421 Y49.342 E4.23259
G1 X23.208 Y48.924 E4.25606
G1 X23.076 Y48.47 E4.27969
G1 X23.032 Y47.999 E4.30333
G1 X23.076 Y47.529 E4.32697
G1 X23.208 Y47.075 E4.35061
G1 X23.423 Y46.654 E4.37424
G1 X23.713 Y46.281 E4.39788
G1 X24.067 Y45.968 E4.42151
G1 X24.471 Y45.729 E4.44498
G1 X24.767 Y45.612 E4.46092
G1 X25.074 Y45.533 E4.47675
G1 X25.541 Y45.489 E4.50022
G1 X26.013 Y45.533 E4.52395
G1 X26.467 Y45.665 E4.54759
G1 X26.888 Y45.879 E4.57123
G1 X27.259 Y46.167 E4.5947
