; generated by PrusaSlicer 2.4.1+linux-x64-GTK3 on 2022-04-30 at 16:23:39 UTC

; 

; external perimeters extrusion width = 0.45mm
; perimeters extrusion width = 0.45mm
; infill extrusion width = 0.45mm
; solid infill extrusion width = 0.45mm
; top infill extrusion width = 0.40mm
; support material extrusion width = 0.35mm
; first layer extrusion width = 0.42mm

M107
M190 S60 ; set bed temperature and wait for it to be reached
M104 S215 ; set temperature
;TYPE:Custom
G28 ; home all axes
G1 Z5 F5000 ; lift nozzle
M109 S215 ; set temperature and wait for it to be reached
G21 ; set units to millimeters
G90 ; use absolute coordinates
M82 ; use absolute distances for extrusion
G92 E0
; Filament gcode
M107
;LAYER_CHANGE
;Z:0.4
;HEIGHT:0.4
G1 Z.4 F7800
G1 E-2 F2400
G92 E0
G1 X20.231 Y7.225 F7800
G1 E2 F2400
;TYPE:Skirt/Brim
;WIDTH:0.42
G1 F1440
G1 X21.105 Y5.968 E2.07661
G1 X22.74 Y4.334 E2.1922
G1 X24.299 Y3.334 E2.28482
G1 X25.806 Y3.063 E2.36143
G1 X84.116 Y3.063 E5.2777
G1 X85.925 Y3.459 E5.37032
G1 X87.182 Y4.334 E5.44692
G1 X88.816 Y5.968 E5.56252
G1 X89.816 Y7.527 E5.65514
G1 X90.087 Y9.034 E5.73175
G1 X90.087 Y111.914 E10.87713
G1 X89.691 Y113.723 E10.96975
G1 X88.816 Y114.98 E11.04635
G1 X87.182 Y116.615 E11.16195
G1 X85.623 Y117.614 E11.25457
G1 X84.116 Y117.885 E11.33117
G1 X25.806 Y117.885 E14.24745
G1 X23.997 Y117.489 E14.34006
G1 X22.74 Y116.615 E14.41667
G1 X21.105 Y114.98 E14.53227
G1 X20.106 Y113.421 E14.62489
G1 X19.835 Y111.914 E14.70149
G1 X19.835 Y9.034 E19.84688
G1 X20.218 Y7.284 E19.93649
G1 X20.551 Y7.36 F7800
G1 F1440
G1 X20.564 Y7.301 E19.93953
G1 X21.342 Y6.204 E20.00674
G1 X22.976 Y4.57 E20.12234
G1 X24.481 Y3.623 E20.21128
G1 X25.806 Y3.398 E20.27849
G1 X84.116 Y3.398 E23.19477
G1 X85.849 Y3.793 E23.2837
G1 X86.946 Y4.57 E23.35092
G1 X88.58 Y6.204 E23.46652
G1 X89.527 Y7.71 E23.55545
G1 X89.752 Y9.034 E23.62267
G1 X89.752 Y111.914 E28.76805
G1 X89.357 Y113.647 E28.85699
G1 X88.58 Y114.744 E28.9242
G1 X86.946 Y116.378 E29.0398
G1 X85.441 Y117.325 E29.12874
G1 X84.116 Y117.551 E29.19595
G1 X25.806 Y117.551 E32.11223
G1 X24.073 Y117.156 E32.20116
G1 X22.976 Y116.378 E32.26838
G1 X21.342 Y114.744 E32.38398
G1 X20.395 Y113.239 E32.47291
G1 X20.169 Y111.914 E32.54013
G1 X20.169 Y9.034 E37.68551
G1 X20.538 Y7.418 E37.76841
G1 X20.87 Y7.498 F7800
G1 F1440
G1 X20.898 Y7.379 E37.77448
G1 X21.578 Y6.441 E37.83246
G1 X23.212 Y4.806 E37.94806
G1 X24.662 Y3.915 E38.03315
G1 X25.806 Y3.732 E38.09113
G1 X84.116 Y3.732 E41.0074
G1 X85.771 Y4.126 E41.09249
G1 X86.71 Y4.806 E41.15047
G1 X88.344 Y6.441 E41.26607
G1 X89.235 Y7.89 E41.35116
G1 X89.418 Y9.034 E41.40913
G1 X89.418 Y111.914 E46.55452
G1 X89.024 Y113.569 E46.63961
G1 X88.344 Y114.508 E46.69759
G1 X86.71 Y116.142 E46.81318
G1 X85.26 Y117.033 E46.89828
G1 X84.116 Y117.216 E46.95625
G1 X25.806 Y117.216 E49.87252
G1 X24.151 Y116.822 E49.95762
G1 X23.212 Y116.142 E50.01559
G1 X21.578 Y114.508 E50.13119
G1 X20.687 Y113.058 E50.21628
G1 X20.504 Y111.914 E50.27426
G1 X20.504 Y9.034 E55.41964
G1 X20.856 Y7.556 E55.49566
G1 X21.188 Y7.639 F7800
G1 F1440
G1 X21.232 Y7.462 E55.50478
G1 X21.814 Y6.677 E55.55368
G1 X23.449 Y5.043 E55.66928
G1 X24.839 Y4.209 E55.75035
G1 X25.806 Y4.066 E55.79925
G1 X84.116 Y4.066 E58.71552
G1 X85.688 Y4.46 E58.79659
G1 X86.473 Y5.043 E58.84549
G1 X88.108 Y6.677 E58.96109
G1 X88.941 Y8.067 E59.04216
G1 X89.084 Y9.034 E59.09106
G1 X89.084 Y111.914 E64.23644
G1 X88.69 Y113.486 E64.31751
G1 X88.108 Y114.271 E64.36642
G1 X86.473 Y115.906 E64.48201
G1 X85.083 Y116.739 E64.56308
G1 X84.116 Y116.882 E64.61198
G1 X25.806 Y116.882 E67.52826
G1 X24.234 Y116.488 E67.60932
G1 X23.449 Y115.906 E67.65823
G1 X21.814 Y114.271 E67.77382
G1 X20.981 Y112.881 E67.85489
G1 X20.838 Y111.914 E67.9038
G1 X20.838 Y9.034 E73.04918
G1 X21.173 Y7.697 E73.11813
G1 E71.11813 F2400
G92 E0
G1 X85.75 Y9.034 F7800
G1 E2 F2400
;TYPE:Support material
G1 F1440
G1 X85.75 Y111.914 E7.14538
G1 X84.116 Y113.548 E7.26098
G1 X25.806 Y113.548 E10.17725
G1 X24.172 Y111.914 E10.29285
G1 X24.172 Y9.034 E15.43823
G1 X25.806 Y7.4 E15.55383
G1 X84.116 Y7.4 E18.4701
G1 X85.715 Y8.999 E18.58319
G1 E16.58319 F2400
G92 E0
G1 X24.473 Y111.54 F7800
G1 E2 F2400
G1 F1440
G1 X24.473 Y111.789 E2.01244
G1 X25.931 Y113.247 E2.11558
G1 X26.347 Y113.247 E2.13637
G1 X24.473 Y111.373 E2.26892
G1 X24.473 Y110.848 E2.29518
G1 X26.872 Y113.247 E2.46486
G1 X27.397 Y113.247 E2.49113
G1 X24.473 Y110.323 E2.69795
G1 X24.473 Y109.798 E2.72421
G1 X27.922 Y113.247 E2.96817
G1 X28.447 Y113.247 E2.99444
G1 X24.473 Y109.273 E3.27554
G1 X24.473 Y108.748 E3.3018
G1 X28.972 Y113.247 E3.62004
G1 X29.497 Y113.247 E3.6463
G1 X24.473 Y108.223 E4.00168
G1 X24.473 Y107.698 E4.02794
G1 X30.022 Y113.247 E4.42046
G1 X30.547 Y113.247 E4.44673
G1 X24.473 Y107.173 E4.87638
G1 X24.473 Y106.648 E4.90265
G1 X31.072 Y113.247 E5.36944
G1 X31.597 Y113.247 E5.3957
G1 X24.473 Y106.123 E5.89964
G1 X24.473 Y105.597 E5.9259
G1 X32.123 Y113.247 E6.46698
G1 X32.648 Y113.247 E6.49324
G1 X24.473 Y105.072 E7.07145
G1 X24.473 Y104.547 E7.09772
G1 X33.173 Y113.247 E7.71307
G1 X33.698 Y113.247 E7.73933
G1 X24.473 Y104.022 E8.39182
G1 X24.473 Y103.497 E8.41809
G1 X34.223 Y113.247 E9.10772
G1 X34.748 Y113.247 E9.13398
G1 X24.473 Y102.972 E9.86075
G1 X24.473 Y102.447 E9.88701
G1 X35.273 Y113.247 E10.65092
G1 X35.798 Y113.247 E10.67718
G1 X24.473 Y101.922 E11.47823
G1 X24.473 Y101.397 E11.50449
G1 X36.323 Y113.247 E12.34268
G1 X36.848 Y113.247 E12.36894
G1 X24.473 Y100.872 E13.24427
G1 X24.473 Y100.347 E13.27053
G1 X37.373 Y113.247 E14.183
G1 X37.898 Y113.247 E14.20926
G1 X24.473 Y99.822 E15.15886
G1 X24.473 Y99.296 E15.18513
G1 X38.423 Y113.247 E16.17187
G1 X38.949 Y113.247 E16.19813
G1 X24.473 Y98.771 E17.22202
G1 X24.473 Y98.246 E17.24828
G1 X39.474 Y113.247 E18.3093
G1 X39.999 Y113.247 E18.33556
G1 X24.473 Y97.721 E19.43372
G1 X24.473 Y97.196 E19.45998
G1 X40.524 Y113.247 E20.59528
G1 X41.049 Y113.247 E20.62155
G1 X24.473 Y96.671 E21.79399
G1 X24.473 Y96.146 E21.82025
G1 X41.574 Y113.247 E23.02983
G1 X42.099 Y113.247 E23.05609
G1 X24.473 Y95.621 E24.30281
G1 X24.473 Y95.096 E24.32907
G1 X42.624 Y113.247 E25.61292
G1 X43.149 Y113.247 E25.63918
G1 X24.473 Y94.571 E26.96018
G1 X24.473 Y94.046 E26.98644
G1 X43.674 Y113.247 E28.34458
G1 X44.199 Y113.247 E28.37084
G1 X24.473 Y93.521 E29.76611
G1 X24.473 Y92.995 E29.79237
G1 X44.724 Y113.247 E31.22479
G1 X45.25 Y113.247 E31.25105
G1 X24.473 Y92.47 E32.7206
G1 X24.473 Y91.945 E32.74686
G1 X45.775 Y113.247 E34.25355
G1 X46.3 Y113.247 E34.27982
G1 X24.473 Y91.42 E35.82365
G1 X24.473 Y90.895 E35.84991
G1 X46.825 Y113.247 E37.43088
G1 X47.35 Y113.247 E37.45714
G1 X24.473 Y90.37 E39.07525
G1 X24.473 Y89.845 E39.10151
G1 X47.875 Y113.247 E40.75676
G1 X48.4 Y113.247 E40.78302
G1 X24.473 Y89.32 E42.4754
G1 X24.473 Y88.795 E42.50166
G1 X48.925 Y113.247 E44.23119
G1 X49.45 Y113.247 E44.25745
G1 X24.473 Y88.27 E46.02412
G1 X24.473 Y87.745 E46.05038
G1 X49.975 Y113.247 E47.85418
G1 X50.5 Y113.247 E47.88044
G1 X24.473 Y87.22 E49.72139
G1 X24.473 Y86.695 E49.74765
G1 X51.025 Y113.247 E51.62573
G1 X51.55 Y113.247 E51.65199
G1 X24.473 Y86.169 E53.56721
G1 X24.473 Y85.644 E53.59347
G1 X52.076 Y113.247 E55.54583
G1 X52.601 Y113.247 E55.57209
G1 X24.473 Y85.119 E57.56159
G1 X24.473 Y84.594 E57.58785
G1 X53.126 Y113.247 E59.61449
G1 X53.651 Y113.247 E59.64075
G1 X24.473 Y84.069 E61.70453
G1 X24.473 Y83.544 E61.73079
G1 X54.176 Y113.247 E63.83171
G1 X54.701 Y113.247 E63.85797
G1 X24.473 Y83.019 E65.99603
G1 X24.473 Y82.494 E66.02229
G1 X55.226 Y113.247 E68.19748
G1 X55.751 Y113.247 E68.22374
G1 X24.473 Y81.969 E70.43608
G1 X24.473 Y81.444 E70.46234
G1 X56.276 Y113.247 E72.71181
G1 X56.801 Y113.247 E72.73807
G1 X24.473 Y80.919 E75.02468
G1 X24.473 Y80.394 E75.05094
G1 X57.326 Y113.247 E77.3747
G1 X57.851 Y113.247 E77.40096
G1 X24.473 Y79.868 E79.76185
G1 X24.473 Y79.343 E79.78811
G1 X58.377 Y113.247 E82.18614
G1 X58.902 Y113.247 E82.2124
G1 X24.473 Y78.818 E84.64757
G1 X24.473 Y78.293 E84.67383
G1 X59.427 Y113.247 E87.14613
G1 X59.952 Y113.247 E87.1724
G1 X24.473 Y77.768 E89.68184
G1 X24.473 Y77.243 E89.7081
G1 X60.477 Y113.247 E92.25469
G1 X61.002 Y113.247 E92.28095
G1 X24.473 Y76.718 E94.86467
G1 X24.473 Y76.193 E94.89093
G1 X61.527 Y113.247 E97.5118
G1 X62.052 Y113.247 E97.53806
G1 X24.473 Y75.668 E100.19606
G1 X24.473 Y75.143 E100.22232
G1 X62.577 Y113.247 E102.91746
G1 X63.102 Y113.247 E102.94373
G1 X24.473 Y74.618 E105.67601
G1 X24.473 Y74.093 E105.70227
G1 X63.627 Y113.247 E108.47169
G1 X64.152 Y113.247 E108.49795
G1 X24.473 Y73.567 E111.30451
G1 X24.473 Y73.042 E111.33077
G1 X64.677 Y113.247 E114.17447
G1 X65.203 Y113.247 E114.20073
G1 X24.473 Y72.517 E117.08156
G1 X24.473 Y71.992 E117.10782
G1 X65.728 Y113.247 E120.0258
G1 X66.253 Y113.247 E120.05206
G1 X24.473 Y71.467 E123.00718
G1 X24.473 Y70.942 E123.03344
G1 X66.778 Y113.247 E126.02569
G1 X67.303 Y113.247 E126.05195
G1 X24.473 Y70.417 E129.08135
G1 X24.473 Y69.892 E129.10761
G1 X67.828 Y113.247 E132.17414
G1 X68.353 Y113.247 E132.2004
G1 X24.473 Y69.367 E135.30407
G1 X24.473 Y68.842 E135.33033
G1 X68.878 Y113.247 E138.47114
G1 X69.403 Y113.247 E138.4974
G1 X24.473 Y68.317 E141.67535
G1 X24.473 Y67.792 E141.70161
G1 X69.928 Y113.247 E144.9167
G1 X70.453 Y113.247 E144.94296
G1 X24.473 Y67.266 E148.19519
G1 X24.473 Y66.741 E148.22145
G1 X70.978 Y113.247 E151.51082
G1 X71.504 Y113.247 E151.53708
G1 X24.473 Y66.216 E154.86358
G1 X24.473 Y65.691 E154.88985
G1 X72.029 Y113.247 E158.25349
G1 X72.554 Y113.247 E158.27975
G1 X24.473 Y65.166 E161.68054
G1 X24.473 Y64.641 E161.7068
G1 X73.079 Y113.247 E165.14472
G1 X73.604 Y113.247 E165.17098
G1 X24.473 Y64.116 E168.64604
G1 X24.473 Y63.591 E168.6723
G1 X74.129 Y113.247 E172.1845
G1 X74.654 Y113.247 E172.21076
G1 X24.473 Y63.066 E175.7601
G1 X24.473 Y62.541 E175.78637
G1 X75.179 Y113.247 E179.37284
G1 X75.704 Y113.247 E179.39911
G1 X24.473 Y62.016 E183.02272
G1 X24.473 Y61.491 E183.04899
G1 X76.229 Y113.247 E186.70974
G1 X76.754 Y113.247 E186.736
G1 X24.473 Y60.966 E190.4339
G1 X24.473 Y60.44 E190.46016
G1 X77.279 Y113.247 E194.1952
G1 X77.804 Y113.247 E194.22146
G1 X24.473 Y59.915 E197.99363
G1 X24.473 Y59.39 E198.01989
G1 X78.33 Y113.247 E201.82921
G1 X78.855 Y113.247 E201.85547
G1 X24.473 Y58.865 E205.70192
G1 X24.473 Y58.34 E205.72818
G1 X79.38 Y113.247 E209.61177
G1 X79.905 Y113.247 E209.63803
G1 X24.473 Y57.815 E213.55876
G1 X24.473 Y57.29 E213.58502
G1 X80.43 Y113.247 E217.54289
G1 X80.955 Y113.247 E217.56916
G1 X24.473 Y56.765 E221.56416
G1 X24.473 Y56.24 E221.59042
G1 X81.48 Y113.247 E225.62257
G1 X82.005 Y113.247 E225.64883
G1 X24.473 Y55.715 E229.71812
G1 X24.473 Y55.19 E229.74438
G1 X82.53 Y113.247 E233.85081
G1 X83.055 Y113.247 E233.87707
G1 X24.473 Y54.665 E238.02063
G1 X24.473 Y54.139 E238.04689
G1 X83.58 Y113.247 E242.2276
G1 X83.991 Y113.247 E242.24814
G1 X84.048 Y113.19 E242.25218
G1 X24.473 Y53.614 E246.46598
G1 X24.473 Y53.089 E246.49224
G1 X84.311 Y112.928 E250.72461
G1 X84.573 Y112.665 E250.74318
G1 X24.473 Y52.564 E254.99412
G1 X24.473 Y52.039 E255.02038
G1 X84.836 Y112.403 E259.28989
G1 X85.098 Y112.14 E259.30846
G1 X24.473 Y51.514 E263.59653
G1 X24.473 Y50.989 E263.6228
G1 X85.361 Y111.877 E267.92944
G1 X85.449 Y111.789 E267.93569
G1 X85.449 Y111.441 E267.95312
G1 X24.473 Y50.464 E272.26601
G1 X24.473 Y49.939 E272.29227
G1 X85.449 Y110.916 E276.60516
G1 X85.449 Y110.39 E276.63142
G1 X24.473 Y49.414 E280.94432
G1 X24.473 Y48.889 E280.97058
G1 X85.449 Y109.865 E285.28347
G1 X85.449 Y109.34 E285.30973
G1 X24.473 Y48.364 E289.62262
G1 X24.473 Y47.838 E289.64888
G1 X85.449 Y108.815 E293.96177
G1 X85.449 Y108.29 E293.98804
G1 X24.473 Y47.313 E298.30093
G1 X24.473 Y46.788 E298.32719
G1 X85.449 Y107.765 E302.64008
G1 X85.449 Y107.24 E302.66634
G1 X24.473 Y46.263 E306.97923
G1 X24.473 Y45.738 E307.0055
G1 X85.449 Y106.715 E311.31839
G1 X85.449 Y106.19 E311.34465
G1 X24.473 Y45.213 E315.65754
G1 X24.473 Y44.688 E315.6838
G1 X85.449 Y105.665 E319.99669
G1 X85.449 Y105.14 E320.02295
G1 X24.473 Y44.163 E324.33585
G1 X24.473 Y43.638 E324.36211
G1 X85.449 Y104.615 E328.675
G1 X85.449 Y104.09 E328.70126
G1 X24.473 Y43.113 E333.01415
G1 X24.473 Y42.588 E333.04041
G1 X85.449 Y103.564 E337.35331
G1 X85.449 Y103.039 E337.37957
G1 X24.473 Y42.063 E341.69246
G1 X24.473 Y41.537 E341.71872
G1 X85.449 Y102.514 E346.03161
G1 X85.449 Y101.989 E346.05787
G1 X24.473 Y41.012 E350.37077
G1 X24.473 Y40.487 E350.39703
G1 X85.449 Y101.464 E354.70992
G1 X85.449 Y100.939 E354.73618
G1 X24.473 Y39.962 E359.04907
G1 X24.473 Y39.437 E359.07533
G1 X85.449 Y100.414 E363.38822
G1 X85.449 Y99.889 E363.41449
G1 X24.473 Y38.912 E367.72738
G1 X24.473 Y38.387 E367.75364
G1 X85.449 Y99.364 E372.06653
G1 X85.449 Y98.839 E372.09279
G1 X24.473 Y37.862 E376.40568
G1 X24.473 Y37.337 E376.43195
G1 X85.449 Y98.314 E380.74484
G1 X85.449 Y97.789 E380.7711
G1 X24.473 Y36.812 E385.08399
G1 X24.473 Y36.287 E385.11025
G1 X85.449 Y97.263 E389.42314
G1 X85.449 Y96.738 E389.4494
G1 X24.473 Y35.762 E393.7623
G1 X24.473 Y35.237 E393.78856
G1 X85.449 Y96.213 E398.10145
G1 X85.449 Y95.688 E398.12771
G1 X24.473 Y34.711 E402.4406
G1 X24.473 Y34.186 E402.46686
G1 X85.449 Y95.163 E406.77976
G1 X85.449 Y94.638 E406.80602
G1 X24.473 Y33.661 E411.11891
G1 X24.473 Y33.136 E411.14517
G1 X85.449 Y94.113 E415.45806
G1 X85.449 Y93.588 E415.48432
G1 X24.473 Y32.611 E419.79722
G1 X24.473 Y32.086 E419.82348
G1 X85.449 Y93.063 E424.13637
G1 X85.449 Y92.538 E424.16263
G1 X24.473 Y31.561 E428.47552
G1 X24.473 Y31.036 E428.50178
G1 X85.449 Y92.013 E432.81467
G1 X85.449 Y91.488 E432.84094
G1 X24.473 Y30.511 E437.15383
G1 X24.473 Y29.986 E437.18009
G1 X85.449 Y90.962 E441.49298
G1 X85.449 Y90.437 E441.51924
G1 X24.473 Y29.461 E445.83213
G1 X24.473 Y28.936 E445.85839
G1 X85.449 Y89.912 E450.17129
G1 X85.449 Y89.387 E450.19755
G1 X24.473 Y28.41 E454.51044
G1 X24.473 Y27.885 E454.5367
G1 X85.449 Y88.862 E458.84959
G1 X85.449 Y88.337 E458.87585
G1 X24.473 Y27.36 E463.18875
G1 X24.473 Y26.835 E463.21501
G1 X85.449 Y87.812 E467.5279
G1 X85.449 Y87.287 E467.55416
G1 X24.473 Y26.31 E471.86705
G1 X24.473 Y25.785 E471.89331
G1 X85.449 Y86.762 E476.20621
G1 X85.449 Y86.237 E476.23247
G1 X24.473 Y25.26 E480.54536
G1 X24.473 Y24.735 E480.57162
G1 X85.449 Y85.712 E484.88451
G1 X85.449 Y85.187 E484.91077
G1 X24.473 Y24.21 E489.22366
G1 X24.473 Y23.685 E489.24993
G1 X85.449 Y84.661 E493.56282
G1 X85.449 Y84.136 E493.58908
G1 X24.473 Y23.16 E497.90197
G1 X24.473 Y22.635 E497.92823
G1 X85.449 Y83.611 E502.24112
G1 X85.449 Y83.086 E502.26739
G1 X24.473 Y22.109 E506.58028
G1 X24.473 Y21.584 E506.60654
G1 X85.449 Y82.561 E510.91943
G1 X85.449 Y82.036 E510.94569
G1 X24.473 Y21.059 E515.25858
G1 X24.473 Y20.534 E515.28484
G1 X85.449 Y81.511 E519.59774
G1 X85.449 Y80.986 E519.624
G1 X24.473 Y20.009 E523.93689
G1 X24.473 Y19.484 E523.96315
G1 X85.449 Y80.461 E528.27604
G1 X85.449 Y79.936 E528.3023
G1 X24.473 Y18.959 E532.6152
G1 X24.473 Y18.434 E532.64146
G1 X85.449 Y79.411 E536.95435
G1 X85.449 Y78.886 E536.98061
G1 X24.473 Y17.909 E541.2935
G1 X24.473 Y17.384 E541.31976
G1 X85.449 Y78.361 E545.63266
G1 X85.449 Y77.835 E545.65892
G1 X24.473 Y16.859 E549.97181
G1 X24.473 Y16.334 E549.99807
G1 X85.449 Y77.31 E554.31096
G1 X85.449 Y76.785 E554.33722
G1 X24.473 Y15.808 E558.65011
G1 X24.473 Y15.283 E558.67638
G1 X85.449 Y76.26 E562.98927
G1 X85.449 Y75.735 E563.01553
G1 X24.473 Y14.758 E567.32842
G1 X24.473 Y14.233 E567.35468
G1 X85.449 Y75.21 E571.66757
G1 X85.449 Y74.685 E571.69383
G1 X24.473 Y13.708 E576.00673
G1 X24.473 Y13.183 E576.03299
G1 X85.449 Y74.16 E580.34588
G1 X85.449 Y73.635 E580.37214
G1 X24.473 Y12.658 E584.68503
G1 X24.473 Y12.133 E584.71129
G1 X85.449 Y73.11 E589.02419
G1 X85.449 Y72.585 E589.05045
G1 X24.473 Y11.608 E593.36334
G1 X24.473 Y11.083 E593.3896
G1 X85.449 Y72.06 E597.70249
G1 X85.449 Y71.534 E597.72875
G1 X24.473 Y10.558 E602.04165
G1 X24.473 Y10.033 E602.06791
G1 X85.449 Y71.009 E606.3808
G1 X85.449 Y70.484 E606.40706
G1 X24.473 Y9.508 E610.71995
G1 X24.473 Y9.159 E610.73738
G1 X24.561 Y9.071 E610.74363
G1 X85.449 Y69.959 E615.05027
