; generated by PrusaSlicer 2.4.1+linux-x64-GTK3 on 2022-04-24 at 15:43:58 UTC

; 

; external perimeters extrusion width = 0.45mm
; perimeters extrusion width = 0.45mm
; infill extrusion width = 0.45mm
; solid infill extrusion width = 0.45mm
; top infill extrusion width = 0.40mm
; first layer extrusion width = 0.42mm

M107
M190 S50 ; set bed temperature and wait for it to be reached
M104 S215 ; set temperature
;TYPE:Custom
G28 ; home all axes
G1 Z5 F5000 ; lift nozzle
M109 S215 ; set temperature and wait for it to be reached
G21 ; set units to millimeters
G90 ; use absolute coordinates
M82 ; use absolute distances for extrusion
G92 E0
; Filament gcode
M107
;LAYER_CHANGE
;Z:0.4
;HEIGHT:0.4
G1 Z.4 F7800
G1 E-2 F2400
G92 E0
G1 X9.081 Y9.388 F7800
G1 E2 F2400
;TYPE:Skirt/Brim
;WIDTH:0.42
G1 F1440
G1 X10.193 Y8.312 E2.07735
G1 X12.379 Y7.288 E2.1981
G1 X14.146 Y7.02 E2.2875
G1 X64.563 Y5.577 E4.81005
G1 X66.952 Y5.925 E4.93081
G1 X69.099 Y7.029 E5.05156
G1 X70.771 Y8.77 E5.17231
G1 X71.788 Y10.96 E5.29307
G1 X72.049 Y12.707 E5.38138
G1 X72.089 Y14.12 E5.45211
G1 X71.435 Y17.359 E5.61733
G1 X71.071 Y18.162 E5.66146
G1 X69.725 Y20.166 E5.78222
G1 X67.347 Y21.844 E5.92776
G1 X24.007 Y40.925 E8.2961
G1 X21.213 Y41.545 E8.43927
G1 X15.007 Y41.682 E8.74971
G1 X12.618 Y41.337 E8.87046
G1 X10.469 Y40.236 E8.99121
G1 X8.795 Y38.496 E9.11197
G1 X7.776 Y36.307 E9.23272
G1 X7.511 Y34.527 E9.32276
G1 X7.022 Y14.533 E10.32303
G1 X7.361 Y12.142 E10.44379
G1 X8.457 Y9.991 E10.56454
G1 X9.038 Y9.429 E10.60494
G1 X9.259 Y9.667 F7800
G1 F1440
G1 X10.519 Y8.496 E10.69096
G1 X12.681 Y7.554 E10.80891
G1 X14.156 Y7.354 E10.88336
G1 X64.57 Y5.911 E13.40578
G1 X66.902 Y6.26 E13.52373
G1 X68.986 Y7.363 E13.64169
G1 X70.586 Y9.096 E13.75964
G1 X71.52 Y11.261 E13.87759
G1 X71.715 Y12.716 E13.951
G1 X71.755 Y14.13 E14.02173
G1 X71.131 Y17.22 E14.17943
G1 X70.766 Y18.024 E14.22356
G1 X69.444 Y19.976 E14.34151
G1 X67.212 Y21.538 E14.47774
G1 X23.873 Y40.619 E16.84609
G1 X21.205 Y41.211 E16.98274
G1 X15 Y41.348 E17.29317
G1 X12.667 Y41.002 E17.41112
G1 X10.581 Y39.901 E17.52907
G1 X8.979 Y38.171 E17.64703
G1 X8.043 Y36.006 E17.76498
G1 X7.845 Y34.518 E17.84004
G1 X7.356 Y14.524 E18.84032
G1 X7.696 Y12.191 E18.95827
G1 X8.792 Y10.102 E19.07622
G1 X9.215 Y9.708 E19.10515
G1 X9.428 Y9.947 F7800
G1 F1440
G1 X10.843 Y8.685 E19.19998
G1 X12.979 Y7.829 E19.31506
G1 X14.165 Y7.688 E19.37481
G1 X64.576 Y6.245 E21.8971
G1 X66.851 Y6.595 E22.01218
G1 X68.871 Y7.697 E22.12726
G1 X70.396 Y9.42 E22.24235
G1 X71.245 Y11.558 E22.35743
G1 X71.381 Y12.725 E22.41619
G1 X71.421 Y14.139 E22.48692
G1 X70.827 Y17.082 E22.63709
G1 X70.462 Y17.886 E22.68122
G1 X69.164 Y19.785 E22.79631
G1 X67.077 Y21.232 E22.92329
G1 X23.738 Y40.313 E25.29163
G1 X21.198 Y40.877 E25.42176
G1 X14.993 Y41.014 E25.73219
G1 X12.718 Y40.667 E25.84728
G1 X10.697 Y39.567 E25.96236
G1 X9.169 Y37.846 E26.07744
G1 X8.318 Y35.709 E26.19252
G1 X8.179 Y34.51 E26.25286
G1 X7.69 Y14.516 E27.25313
G1 X8.031 Y12.241 E27.36822
G1 X9.126 Y10.217 E27.4833
G1 X9.383 Y9.987 E27.50056
G1 X9.587 Y10.226 F7800
G1 F1440
G1 X11.167 Y8.881 E27.60433
G1 X14.175 Y8.022 E27.76079
G1 X64.583 Y6.579 E30.28295
G1 X66.798 Y6.93 E30.39509
G1 X68.752 Y8.03 E30.50723
G1 X70.199 Y9.742 E30.61937
G1 X71.047 Y12.735 E30.77491
G1 X71.087 Y14.148 E30.84564
G1 X70.523 Y16.944 E30.98829
G1 X70.158 Y17.748 E31.03242
G1 X68.884 Y19.593 E31.14456
G1 X66.943 Y20.926 E31.26236
G1 X23.603 Y40.008 E33.6307
G1 X21.191 Y40.543 E33.75431
G1 X14.985 Y40.68 E34.06475
G1 X12.77 Y40.332 E34.17689
G1 X10.815 Y39.234 E34.28902
G1 X9.365 Y37.523 E34.40116
G1 X8.513 Y34.502 E34.55816
G1 X8.024 Y14.508 E35.55844
G1 X8.367 Y12.292 E35.67058
G1 X9.46 Y10.335 E35.78272
G1 X9.542 Y10.265 E35.78808
G1 E33.78808 F2400
G92 E0
G1 X18.3 Y31.624 F7800
G1 E2 F2400
;TYPE:Perimeter
G1 F360
G1 X18.485 Y31.645 E2.00931
G1 X18.622 Y31.701 E2.0167
G1 X18.779 Y31.821 E2.02657
G1 X18.888 Y31.979 E2.03619
G1 X19.04 Y32.361 E2.05676
G1 X18.735 Y32.745 E2.08123
G1 X18.577 Y32.842 E2.09053
G1 X18.411 Y32.889 E2.09918
G1 X18.251 Y32.893 E2.10715
G1 X18.083 Y32.854 E2.11582
G1 X17.942 Y32.78 E2.12376
G1 X17.769 Y32.593 E2.13648
G1 X17.622 Y32.279 E2.15386
G1 X17.748 Y31.97 E2.17055
G1 X17.907 Y31.77 E2.1833
G1 X18.13 Y31.65 E2.19596
G1 X18.241 Y31.631 E2.20157
G1 X18.101 Y31.311 F7800
G1 F360
G1 X18.292 Y31.289 E2.21117
G1 X18.483 Y31.302 E2.22076
G1 X18.772 Y31.401 E2.236
G1 X18.862 Y31.455 E2.24128
G1 X19.013 Y31.582 E2.25114
G1 X19.187 Y31.828 E2.26622
G1 X19.42 Y32.413 E2.29774
G1 X19.039 Y32.915 E2.32922
G1 X18.955 Y32.997 E2.33511
G1 X18.704 Y33.154 E2.34992
G1 X18.461 Y33.222 E2.36253
G1 X18.217 Y33.228 E2.37471
G1 X17.972 Y33.171 E2.38734
G1 X17.727 Y33.037 E2.4013
G1 X17.532 Y32.839 E2.41519
G1 X17.477 Y32.758 E2.42009
G1 X17.257 Y32.288 E2.44607
G1 X17.451 Y31.815 E2.47162
G1 X17.551 Y31.66 E2.48084
G1 X17.76 Y31.462 E2.49523
G1 X18.044 Y31.328 E2.51094
G1 X16.997 Y32.041 F7800
;TYPE:External perimeter
G1 F360
G1 X16.578 Y31.978 E2.53213
G1 X16.373 Y23.595 E2.9515
G1 X16.743 Y23.484 E2.97085
G1 X17.056 Y23.93 E2.9981
G1 X17.259 Y24.18 E3.01419
G1 X17.477 Y24.414 E3.03016
G1 X17.962 Y24.848 E3.06276
G1 X18.217 Y25.036 E3.07857
G1 X18.773 Y25.37 E3.111
G1 X19.366 Y25.632 E3.14343
G1 X19.666 Y25.731 E3.15924
G1 X20.298 Y25.877 E3.19167
G1 X20.939 Y25.942 E3.22393
G1 X21.588 Y25.927 E3.25636
G1 X21.902 Y25.889 E3.27217
G1 X22.537 Y25.752 E3.30471
G1 X23.056 Y25.581 E3.33199
G1 X23.284 Y25.902 E3.35171
G1 X22.441 Y26.897 E3.41693
G1 X21.887 Y27.643 E3.46339
G1 X21.393 Y28.413 E3.50917
G1 X20.961 Y29.207 E3.55439
G1 X20.595 Y30.026 E3.59924
G1 X20.437 Y30.444 E3.62159
G1 X20.176 Y31.298 E3.66625
G1 X20.024 Y32.01 E3.70266
G1 X19.63 Y32.037 E3.72243
G1 X19.487 Y31.676 E3.74186
G1 X19.354 Y31.464 E3.75438
G1 X19.248 Y31.342 E3.76246
G1 X19.057 Y31.182 E3.77493
G1 X18.921 Y31.101 E3.78283
G1 X18.687 Y31.006 E3.79548
G1 X18.533 Y30.97 E3.80338
G1 X18.284 Y30.953 E3.81587
G1 X18.036 Y30.983 E3.82835
G1 X17.887 Y31.025 E3.83608
G1 X17.582 Y31.177 E3.85315
G1 X17.459 Y31.271 E3.86088
G1 X17.287 Y31.452 E3.87337
G1 X17.153 Y31.66 E3.88572
G1 X17.02 Y31.985 E3.9033
G1 X16.898 Y32.428 F7800
G1 E1.9033 F2400
G92 E0
G1 X25.225 Y23.418 F7800
G1 E2 F2400
;TYPE:Perimeter
G1 F1440
G1 X25.647 Y22.46 E2.05235
G1 X25.736 Y22.189 E2.0666
G1 X25.876 Y21.585 E2.09761
G1 X25.935 Y21.002 E2.12693
G1 X25.92 Y20.391 E2.15751
G1 X25.83 Y19.794 E2.18768
G1 X25.666 Y19.214 E2.21784
G1 X25.427 Y18.651 E2.24843
G1 X25.291 Y18.401 E2.26266
G1 X24.946 Y17.885 E2.29368
G1 X24.767 Y17.665 E2.30791
G1 X24.337 Y17.229 E2.3385
G1 X23.859 Y16.853 E2.36895
G1 X23.211 Y16.445 E2.40724
G1 X23.423 Y15.588 E2.45141
G1 X44.822 Y15.064 E3.52197
G1 X44.965 Y16.115 E3.57505
G1 X42.716 Y16.682 E3.69105
G1 X41.536 Y17.001 E3.7522
G1 X39.188 Y17.693 E3.87461
G1 X37.459 Y18.257 E3.96558
G1 X36.328 Y18.654 E4.02551
G1 X34.11 Y19.507 E4.14435
G1 X33.039 Y19.959 E4.2025
G1 X31.991 Y20.43 E4.26001
G1 X30.969 Y20.921 E4.31668
G1 X29.978 Y21.432 E4.37243
G1 X29.02 Y21.962 E4.42722
G1 X28.096 Y22.512 E4.48099
G1 X27.211 Y23.081 E4.53362
G1 X25.929 Y23.986 E4.61207
G1 X25.272 Y23.455 E4.65432
G1 X25.634 Y23.318 F7800
;TYPE:External perimeter
G1 F720
G1 X25.959 Y22.58 E4.69466
G1 X26.059 Y22.28 E4.71047
G1 X26.205 Y21.645 E4.74307
G1 X26.27 Y21.01 E4.77501
G1 X26.254 Y20.361 E4.80743
G1 X26.157 Y19.724 E4.8397
G1 X25.982 Y19.103 E4.87196
G1 X25.728 Y18.506 E4.90439
G1 X25.578 Y18.228 E4.9202
G1 X25.215 Y17.686 E4.95279
G1 X25.016 Y17.441 E4.96861
G1 X24.56 Y16.98 E5.00103
G1 X24.051 Y16.579 E5.03341
G1 X23.593 Y16.291 E5.0605
G1 X23.686 Y15.915 E5.07984
G1 X44.531 Y15.405 E6.12269
G1 X44.594 Y15.864 E6.14587
G1 X42.632 Y16.358 E6.24707
G1 X41.445 Y16.679 E6.30856
G1 X39.089 Y17.374 E6.43139
G1 X37.352 Y17.941 E6.52278
G1 X36.213 Y18.34 E6.58314
G1 X33.985 Y19.197 E6.70251
G1 X32.906 Y19.652 E6.76112
G1 X31.85 Y20.127 E6.81904
G1 X30.821 Y20.622 E6.87615
G1 X29.821 Y21.137 E6.93238
G1 X28.853 Y21.672 E6.98768
G1 X27.92 Y22.228 E7.042
G1 X27.024 Y22.804 E7.09529
G1 X25.943 Y23.567 E7.16148
G1 X25.681 Y23.356 E7.17832
G1 X25.239 Y23.255 F7800
G1 X24.838 Y22.841
;TYPE:Perimeter
G1 F360
G1 X24.629 Y23.19 E7.19868
G1 X24.458 Y23.423 E7.21313
G1 X24.271 Y23.644 E7.22759
G1 X23.92 Y23.99 E7.25228
G1 X23.693 Y24.175 E7.26693
G1 X23.274 Y24.456 E7.29215
G1 X23.008 Y24.599 E7.30724
G1 X22.54 Y24.797 E7.33263
G1 X22.03 Y24.941 E7.35916
G1 X21.505 Y25.021 E7.38572
G1 X20.988 Y25.033 E7.41157
G1 X20.696 Y25.013 E7.42624
G1 X20.199 Y24.931 E7.4514
G1 X19.916 Y24.856 E7.46606
G1 X19.444 Y24.682 E7.49123
G1 X19.179 Y24.555 E7.50589
G1 X18.747 Y24.296 E7.53111
G1 X18.505 Y24.116 E7.5462
G1 X18.126 Y23.777 E7.57159
G1 X17.778 Y23.377 E7.59812
G1 X17.491 Y22.947 E7.62398
G1 X17.351 Y22.69 E7.63864
G1 X17.155 Y22.226 E7.66381
G1 X17.066 Y21.947 E7.67846
G1 X16.961 Y21.465 E7.70315
G1 X16.925 Y21.165 E7.71824
G1 X16.913 Y20.661 E7.74346
G1 X16.933 Y20.369 E7.75811
G1 X17.013 Y19.882 E7.7828
G1 X17.09 Y19.59 E7.79788
G1 X17.26 Y19.126 E7.82263
G1 X17.39 Y18.853 E7.83772
G1 X17.657 Y18.409 E7.86364
G1 X17.985 Y17.992 E7.89019
G1 X18.353 Y17.629 E7.91604
G1 X18.58 Y17.443 E7.93071
G1 X18.998 Y17.163 E7.95587
G1 X19.256 Y17.024 E7.97053
G1 X19.719 Y16.827 E7.9957
G1 X19.999 Y16.739 E8.01036
G1 X20.492 Y16.632 E8.03558
G1 X20.791 Y16.597 E8.05067
G1 X21.299 Y16.585 E8.07606
G1 X21.827 Y16.639 E8.1026
G1 X22.331 Y16.755 E8.12846
G1 X22.609 Y16.848 E8.14312
G1 X23.069 Y17.051 E8.16828
G1 X23.548 Y17.338 E8.19621
G1 X23.943 Y17.649 E8.22137
G1 X24.155 Y17.851 E8.23603
G1 X24.495 Y18.242 E8.26189
G1 X24.782 Y18.671 E8.28775
G1 X24.922 Y18.929 E8.30241
G1 X25.118 Y19.392 E8.32758
G1 X25.207 Y19.672 E8.34224
G1 X25.313 Y20.163 E8.36741
G1 X25.348 Y20.455 E8.38207
G1 X25.36 Y20.958 E8.40723
G1 X25.34 Y21.25 E8.42189
G1 X25.258 Y21.746 E8.44706
G1 X25.183 Y22.03 E8.4617
G1 X25.013 Y22.493 E8.4864
G1 X24.869 Y22.789 E8.50286
G1 X24.551 Y22.669 F7800
G1 F360
G1 X24.35 Y23.004 E8.52244
G1 X24.195 Y23.216 E8.53556
G1 X24.026 Y23.416 E8.54868
G1 X23.696 Y23.741 E8.57181
G1 X23.494 Y23.906 E8.58489
G1 X23.101 Y24.169 E8.60851
G1 X22.863 Y24.297 E8.62203
G1 X22.429 Y24.481 E8.64559
G1 X21.959 Y24.614 E8.67003
G1 X21.476 Y24.687 E8.69448
G1 X20.996 Y24.699 E8.7185
G1 X20.735 Y24.681 E8.73158
G1 X20.269 Y24.603 E8.75517
G1 X20.016 Y24.537 E8.76826
G1 X19.574 Y24.374 E8.79185
G1 X19.338 Y24.261 E8.80493
G1 X18.933 Y24.018 E8.82856
G1 X18.716 Y23.857 E8.84207
G1 X18.365 Y23.542 E8.86563
G1 X18.044 Y23.174 E8.89007
G1 X17.777 Y22.775 E8.91409
G1 X17.653 Y22.544 E8.92718
G1 X17.468 Y22.11 E8.95077
G1 X17.389 Y21.861 E8.96384
G1 X17.291 Y21.409 E8.98698
G1 X17.259 Y21.141 E9.00049
G1 X17.247 Y20.669 E9.02412
G1 X17.265 Y20.408 E9.03719
G1 X17.34 Y19.951 E9.06033
G1 X17.409 Y19.69 E9.07383
G1 X17.568 Y19.255 E9.097
G1 X17.685 Y19.011 E9.11051
G1 X17.932 Y18.599 E9.13457
G1 X18.235 Y18.215 E9.15902
G1 X18.576 Y17.878 E9.18303
G1 X18.779 Y17.712 E9.19612
G1 X19.171 Y17.45 E9.21971
G1 X19.401 Y17.326 E9.23279
G1 X19.835 Y17.141 E9.25638
G1 X20.085 Y17.062 E9.26947
G1 X20.546 Y16.962 E9.29309
G1 X20.815 Y16.931 E9.3066
G1 X21.286 Y16.92 E9.33017
G1 X21.772 Y16.969 E9.35461
G1 X22.24 Y17.077 E9.37863
G1 X22.488 Y17.16 E9.39171
G1 X22.92 Y17.35 E9.4153
G1 X23.353 Y17.61 E9.4406
G1 X23.724 Y17.902 E9.46419
G1 X23.914 Y18.083 E9.47727
G1 X24.229 Y18.445 E9.50129
G1 X24.496 Y18.844 E9.52531
G1 X24.62 Y19.074 E9.5384
G1 X24.805 Y19.508 E9.56199
G1 X24.884 Y19.758 E9.57507
G1 X24.983 Y20.219 E9.59866
G1 X25.014 Y20.478 E9.61175
G1 X25.026 Y20.95 E9.63533
G1 X25.008 Y21.211 E9.64842
G1 X24.931 Y21.676 E9.67201
G1 X24.864 Y21.929 E9.68508
G1 X24.704 Y22.363 E9.70822
G1 X24.582 Y22.617 E9.72231
G1 X24.265 Y22.497 F7800
;TYPE:External perimeter
G1 F360
G1 X24.071 Y22.819 E9.74112
G1 X23.932 Y23.009 E9.7529
G1 X23.78 Y23.189 E9.76468
G1 X23.473 Y23.492 E9.78626
G1 X23.295 Y23.637 E9.79776
G1 X22.929 Y23.882 E9.81979
G1 X22.719 Y23.995 E9.83172
G1 X22.318 Y24.165 E9.85347
G1 X21.888 Y24.287 E9.87581
G1 X21.447 Y24.353 E9.89815
G1 X21.003 Y24.364 E9.92033
G1 X20.774 Y24.348 E9.93184
G1 X20.34 Y24.276 E9.95385
G1 X20.117 Y24.218 E9.96536
G1 X19.704 Y24.066 E9.98738
G1 X19.496 Y23.966 E9.99888
G1 X19.119 Y23.739 E10.02091
G1 X18.927 Y23.597 E10.03284
G1 X18.603 Y23.307 E10.05459
G1 X18.31 Y22.97 E10.07693
G1 X18.064 Y22.602 E10.09911
G1 X17.954 Y22.399 E10.11062
G1 X17.782 Y21.994 E10.13263
G1 X17.713 Y21.775 E10.14414
G1 X17.621 Y21.353 E10.16572
G1 X17.592 Y21.116 E10.17765
G1 X17.581 Y20.676 E10.19967
G1 X17.597 Y20.447 E10.21118
G1 X17.668 Y20.021 E10.23276
G1 X17.728 Y19.79 E10.24469
G1 X17.877 Y19.385 E10.26628
G1 X17.979 Y19.17 E10.27821
G1 X18.208 Y18.789 E10.3004
G1 X18.484 Y18.438 E10.32275
G1 X18.8 Y18.127 E10.34493
G1 X18.978 Y17.981 E10.35644
G1 X19.344 Y17.736 E10.37845
G1 X19.546 Y17.627 E10.38996
G1 X19.952 Y17.455 E10.41197
G1 X20.171 Y17.385 E10.42348
G1 X20.601 Y17.292 E10.44551
G1 X20.838 Y17.265 E10.45744
G1 X21.273 Y17.254 E10.47918
G1 X21.717 Y17.299 E10.50153
G1 X22.149 Y17.399 E10.52371
G1 X22.368 Y17.472 E10.53521
G1 X22.771 Y17.649 E10.55723
G1 X23.159 Y17.883 E10.5799
G1 X23.505 Y18.155 E10.60192
G1 X23.672 Y18.314 E10.61342
G1 X23.963 Y18.648 E10.6356
G1 X24.209 Y19.017 E10.65778
G1 X24.319 Y19.219 E10.66929
G1 X24.491 Y19.624 E10.6913
G1 X24.56 Y19.844 E10.70281
G1 X24.653 Y20.274 E10.72483
G1 X24.681 Y20.502 E10.73633
G1 X24.691 Y20.942 E10.75835
G1 X24.675 Y21.172 E10.76986
G1 X24.604 Y21.606 E10.79187
G1 X24.545 Y21.829 E10.80337
G1 X24.396 Y22.234 E10.82496
G1 X24.295 Y22.445 E10.83667
G1 X24.463 Y22.816 F7800
G1 E8.83667 F2400
G92 E0
G1 X19.24 Y16.687 F7800
G1 E2 F2400
;TYPE:Perimeter
G1 F360
G1 X18.431 Y17.254 E2.04944
G1 X17.991 Y17.638 E2.07862
G1 X17.617 Y18.057 E2.10674
G1 X17.461 Y18.268 E2.11988
G1 X16.926 Y19.117 E2.17006
G1 X15.587 Y18.786 E2.23905
G1 X15.505 Y15.447 E2.40609
G1 X18.844 Y15.365 E2.57312
G1 X19.223 Y16.629 E2.63912
G1 X18.851 Y16.552 F7800
G1 F360
G1 X18.224 Y16.99 E2.67738
G1 X17.756 Y17.399 E2.70849
G1 X17.357 Y17.846 E2.73843
G1 X17.185 Y18.08 E2.75297
G1 X16.772 Y18.735 E2.79168
G1 X15.915 Y18.523 E2.83585
G1 X15.847 Y15.773 E2.97342
G1 X18.597 Y15.706 E3.11099
G1 X18.834 Y16.494 E3.15215
G1 X18.462 Y16.416 F7800
;TYPE:External perimeter
G1 F360
G1 X18.018 Y16.727 E3.17923
G1 X17.52 Y17.161 E3.21227
G1 X17.097 Y17.635 E3.24404
G1 X16.908 Y17.891 E3.25997
G1 X16.618 Y18.352 E3.28722
G1 X16.242 Y18.26 E3.30656
G1 X16.19 Y16.099 E3.41466
G1 X18.35 Y16.046 E3.52276
G1 X18.444 Y16.359 E3.53911
G1 X18.771 Y16.67 F7800
G1 E1.53911 F2400
G92 E0
G1 X24.816 Y23.517 F7800
G1 E2 F2400
;TYPE:Perimeter
G1 F1440
G1 X25.667 Y24.203 E2.05465
G1 X25.202 Y24.564 E2.08409
G1 X24.755 Y24.953 E2.11369
G1 X24.711 Y24.908 E2.11684
G1 X24.383 Y25.253 E2.14066
G1 X24.355 Y25.226 E2.14258
G1 X24.041 Y25.575 E2.16603
G1 X24.011 Y25.548 E2.16803
G1 X23.925 Y25.65 E2.1747
G1 X23.315 Y24.793 E2.22734
G1 X22.362 Y25.106 E2.27749
G1 X21.791 Y25.229 E2.30671
G1 X21.54 Y25.259 E2.31937
G1 X20.965 Y25.273 E2.34811
G1 X20.407 Y25.217 E2.37617
G1 X19.847 Y25.087 E2.40492
G1 X19.607 Y25.007 E2.41758
G1 X19.081 Y24.775 E2.44633
G1 X18.588 Y24.479 E2.47508
G1 X18.384 Y24.329 E2.48773
G1 X17.945 Y23.937 E2.51718
G1 X17.764 Y23.741 E2.53053
G1 X17.59 Y23.527 E2.54434
G1 X17.014 Y22.705 E2.59452
G1 X15.692 Y23.102 E2.66351
G1 X15.946 Y33.442 E3.1808
G1 X15.702 Y33.448 E3.19297
G1 X15.256 Y15.21 E4.1054
G1 X59.048 Y14.138 E6.29624
G1 X61.026 Y13.969 E6.39553
G1 X62.776 Y13.859 E6.48324
G1 X63.48 Y13.834 E6.51848
G1 X63.491 Y14.273 E6.54041
G1 X53.201 Y14.524 E7.05522
G1 X50.403 Y14.989 E7.19705
G1 X48.061 Y15.435 E7.31627
G1 X45.292 Y16.041 E7.45803
G1 X45.113 Y14.722 E7.52459
G1 X23.16 Y15.26 E8.62285
G1 X22.829 Y16.599 E8.69185
G1 X23.666 Y17.126 E8.74133
G1 X24.114 Y17.479 E8.76986
G1 X24.518 Y17.888 E8.79861
G1 X24.678 Y18.084 E8.81127
G1 X25.005 Y18.574 E8.84071
G1 X25.125 Y18.796 E8.85337
G1 X25.35 Y19.325 E8.88212
G1 X25.503 Y19.865 E8.91017
G1 X25.587 Y20.42 E8.93823
G1 X25.601 Y20.994 E8.96698
G1 X25.547 Y21.525 E8.99367
G1 X25.414 Y22.099 E9.02311
